!!!!SEGMENT: pl-stab--27c--001-008_nowakiewicz-kazimierz--missa-in-b-benedictus.krn
!!!cenid: 18xx:3457
!!!COM: Nowakiewicz, Kazimierz
!!!COM-rismID: pe30020309
!!!CDT: <1800->1824
!!!CNT: Polish
!!!OPR: Missa in B
!!!OTL: Benedictus
!!!OMV: 008
!!!PDT:
!!!AGN:
!!!SMS-siglum: PL-STAb
!!!SMS-shelfmark: 27c
!!!SMS-shelfwork: 001-008 M
!!!SMS-variant:
!!!SMS-altvar:
!!!NIFC-rismSourceID: 301050705
!!!NIFC-islandoraID: pl-stab:3750
!!!URL-pdf-islandora: https://repozytorium.nifc.pl/islandora/object/pl-stab%3A3750/datastream/PDF/view
!!!URL-scan: https://polish.musicsources.pl/pl/lokalizacje/galeria/rekopisy/4473 @EN{Scan on Polish Music Herritage in Open Access Website} @PL{Skany w portalu Dziedzictwo Muzyki Polskiej w otwartym dostępie}
!!!ONB-nifc: UWAGA: części Mszy: 1. Kyrie, 2. Gloria, 3. Credo, 4. Et incarnatus, 5. Et resurrexit, 6. Sanctus, 7. Pleni sunt, 8. Benedictus, 9. Agnus Dei, 10. Dona nobis
!!!OMD: adagio
!!!AIN: 1 alto 1 bass 2 clars 2 cor 1 organ 1 soprn 1 tenor 2 violn
!!!key: E-
**kern	**fba	**kern	**dynam	**kern	**dynam	**kern	**dynam	**kern	**text	**kern	**text	**kern	**text	**kern	**text	**kern	**dynam	**kern	**dynam	**kern	**dynam	**kern	**dynam
*part11	*part11	*part11	*part11	*part10	*part10	*part9	*part9	*part8	*part8	*part7	*part7	*part6	*part6	*part5	*part5	*part4	*part4	*part3	*part3	*part2	*part2	*part1	*part1
*staff12	*staff12	*staff11	*	*staff10	*	*staff9	*	*staff8	*staff8	*staff7	*staff7	*staff6	*staff6	*staff5	*staff5	*staff4	*	*staff3	*	*staff2	*	*staff1	*
*I"Organo	*	*I"Organo	*	*I"Violino Secundo	*	*I"Violino Primo	*	*I"Baſso	*	*I"Tenore	*	*I"Alto	*	*I"Canto	*	*I"Cornu Secundo	*	*I"Cornu Primo	*	*I"Clarinetto 2do in B	*	*I"Clarinetto Primo in B.	*
*I'org	*	*I'org	*	*I'vl 2	*	*I'vl 1	*	*I'B	*	*I'T	*	*I'A	*	*I'S	*	*I'cor 2	*	*I'cor 1	*	*I'cl 2 in B|b	*	*I'cl 1 in B|b	*
*Iorgan	*	*Iorgan	*	*Ivioln	*	*Ivioln	*	*Ibass	*	*Itenor	*	*Ialto	*	*Isoprn	*	*Icor	*	*Icor	*	*Iclars	*	*Iclars	*
*ICklav	*	*ICklav	*	*ICstr	*	*ICstr	*	*ICvox	*	*ICvox	*	*ICvox	*	*ICvox	*	*ICbras	*	*ICbras	*	*ICww	*	*ICww	*
*IGcont	*	*IGcont	*	*IGripn	*	*IGripn	*	*IGcoro	*	*IGcoro	*	*IGcoro	*	*IGcoro	*	*IGripn	*	*IGripn	*	*IGrpin	*	*IGripn	*
*clefF4	*	*clefG2	*	*clefG2	*	*clefG2	*	*clefF4	*	*clefC4	*	*clefC3	*	*clefC1	*	*clefG2	*	*clefG2	*	*clefG2	*	*clefG2	*
*	*	*	*	*	*	*	*	*	*	*	*	*	*	*	*	*ITrd5c9	*	*ITrd5c9	*	*ITrd1c2	*	*ITrd1c2	*
*ok[a-b-e-]	*	*ok[e-b-a-]	*	*	*	*	*	*	*	*ok[e-b-a-]	*	*ok[e-b-a-]	*	*	*	*	*	*	*	*	*	*	*
*k[b-e-a-]	*	*k[b-e-a-]	*	*k[b-e-a-]	*	*k[b-e-a-]	*	*k[b-e-a-]	*	*k[b-e-a-]	*	*k[b-e-a-]	*	*k[b-e-a-]	*	*k[b-e-a-]	*	*k[b-e-a-]	*	*k[b-e-a-]	*	*k[b-e-a-]	*
*E-:	*	*E-:	*	*E-:	*	*E-:	*	*E-:	*	*E-:	*	*E-:	*	*E-:	*	*E-:	*	*E-:	*	*E-:	*	*E-:	*
*M2/4	*	*M2/4	*	*M2/4	*	*M2/4	*	*M2/4	*	*M2/4	*	*M2/4	*	*M2/4	*	*M2/4	*	*M2/4	*	*M2/4	*	*M2/4	*
=1	=1	=1	=1	=1	=1	=1	=1	=1	=1	=1	=1	=1	=1	=1	=1	=1	=1	=1	=1	=1	=1	=1	=1
.	.	.	.	.	.	16qqan/LL	.	.	.	.	.	.	.	.	.	.	.	.	.	.	.	.	.
!	!	!	!	!	!	!	!	!	!	!	!	!	!	!LO:TX:a:t=Solo	!	!LO:TX:a:t=in Dis	!	!LO:TX:a:i:t=in Dis	!	!	!	!	!
!	!	!LO:TX:a:t=adagio	!	!LO:TX:a:t=andante	!	!LO:TX:a:t=andante	!	!LO:TX:a:t=36.	!	!LO:TX:a:t=36	!	!	!	!LO:TX:a:t=adagio	!	!LO:TX:a:t=adagio	!	!LO:TX:a:i:t=adagio	!	!LO:TX:a:i:t=adagio	!	!LO:TX:a:t=adagio	!
.	.	.	.	.	.	16qqcc/JJ	.	.	.	.	.	.	.	.	.	.	.	.	.	.	.	.	.
*	*	*	*	*	*	*2\right	*	*	*	*	*	*	*	*	*	*	*	*	*	*	*	*	*
!	!	!	!	!	!LO:DY:a	!	!	!	!	!	!	!	!	!	!	!	!	!	!	!	!	!	!
8E-\	.	2ryy	.	8r	p	2b-\	.	2r	.	2r	.	0r	.	0r	.	1r	.	1r	.	1r	.	1r	.
8r	.	.	.	16e-/LL	.	.	.	.	.	.	.	.	.	.	.	.	.	.	.	.	.	.	.
.	.	.	.	16e-/JJ	.	.	.	.	.	.	.	.	.	.	.	.	.	.	.	.	.	.	.
4r	.	.	.	16f|</LL	.	.	.	.	.	.	.	.	.	.	.	.	.	.	.	.	.	.	.
.	.	.	.	16e-|</	.	.	.	.	.	.	.	.	.	.	.	.	.	.	.	.	.	.	.
.	.	.	.	16e-|</	.	.	.	.	.	.	.	.	.	.	.	.	.	.	.	.	.	.	.
.	.	.	.	16g|</JJ	.	.	.	.	.	.	.	.	.	.	.	.	.	.	.	.	.	.	.
=2	=2	=2	=2	=2	=2	=2	=2	=2	=2	=2	=2	=2	=2	=2	=2	=2	=2	=2	=2	=2	=2	=2	=2
8BB-/	.	2ryy	.	(16g/LL	.	2b-\	.	2r	.	2r	.	.	.	.	.	.	.	.	.	.	.	.	.
.	.	.	.	16f/)	.	.	.	.	.	.	.	.	.	.	.	.	.	.	.	.	.	.	.
8r	.	.	.	16f|</	.	.	.	.	.	.	.	.	.	.	.	.	.	.	.	.	.	.	.
.	.	.	.	16f|</JJ	.	.	.	.	.	.	.	.	.	.	.	.	.	.	.	.	.	.	.
4r	.	.	.	(16f/LL	.	.	.	.	.	.	.	.	.	.	.	.	.	.	.	.	.	.	.
.	.	.	.	16g/)	.	.	.	.	.	.	.	.	.	.	.	.	.	.	.	.	.	.	.
.	.	.	.	16g|</	.	.	.	.	.	.	.	.	.	.	.	.	.	.	.	.	.	.	.
.	.	.	.	16g|</JJ	.	.	.	.	.	.	.	.	.	.	.	.	.	.	.	.	.	.	.
=3	=3	=3	=3	=3	=3	=3	=3	=3	=3	=3	=3	=3	=3	=3	=3	=3	=3	=3	=3	=3	=3	=3	=3
8E-\	.	2ryy	.	8g/	.	(8b-\L	.	2r	.	2r	.	.	.	.	.	2r	.	2r	.	2r	.	2r	.
8r	.	.	.	8r	.	8ee-\	.	.	.	.	.	.	.	.	.	.	.	.	.	.	.	.	.
4r	.	.	.	4r	.	8dd\	.	.	.	.	.	.	.	.	.	.	.	.	.	.	.	.	.
.	.	.	.	.	.	8cc\J)	.	.	.	.	.	.	.	.	.	.	.	.	.	.	.	.	.
=4	=4	=4	=4	=4	=4	=4	=4	=4	=4	=4	=4	=4	=4	=4	=4	=4	=4	=4	=4	=4	=4	=4	=4
!	!	!	!	!	!	!	!	!	!	!	!	!	!	!	!	!	!	!	!LO:DY:a:t=p.	!	!LO:DY:a:t=p.:rj	!	!
8E-\	.	2ryy	.	(16g/LL	.	16b-/LL	.	2r	.	2r	.	.	.	.	.	8e-\	.	8g\	p	16gg\LL	p	16bb-\LL	.
.	.	.	.	16e-/)	.	16g/	.	.	.	.	.	.	.	.	.	.	.	.	.	16ee-\	.	16gg\	.
8r	.	.	.	16e-|</	.	16g/	.	.	.	.	.	.	.	.	.	8r	.	8r	.	16ee-\	.	16gg\	.
.	.	.	.	16g|</JJ	.	16b-/JJ	.	.	.	.	.	.	.	.	.	.	.	.	.	16gg\JJ	.	16bb-\JJ	.
8BB-/	.	.	.	16g/LL	.	16b-/LL	.	.	.	.	.	.	.	.	.	8B-/	.	8f\	.	16gg\LL	.	16bb-\LL	.
.	.	.	.	16f/	.	16a-/	.	.	.	.	.	.	.	.	.	.	.	.	.	16ff\	.	16aa-\	.
8r	.	.	.	16d/	.	16f/	.	.	.	.	.	.	.	.	.	8r	.	8r	.	16dd\	.	16ff\	.
.	.	.	.	16f/JJ	.	16a-/JJ	.	.	.	.	.	.	.	.	.	.	.	.	.	16ff\JJ	.	16aa-\JJ	.
!	!	!	!	!LO:LB:g=original	!	!	!	!	!	!	!	!	!	!	!	!	!	!	!	!	!	!	!
=5	=5	=5	=5	=5	=5	=5	=5	=5	=5	=5	=5	=5	=5	=5	=5	=5	=5	=5	=5	=5	=5	=5	=5
!	!	!	!	!	!	!LO:TX:a:t=P:mixedbeam:problem	!	!	!	!	!	!	!	!	!	!	!	!	!	!	!	!	!
8E-\	.	2ryy	.	8e-/	.	8g/L	.	2r	.	2r	.	0r	.	0r	.	8e-\	.	8g\	.	8ee-\	.	8gg\	.
8r	.	.	.	8r	.	(8ee-\	.	.	.	.	.	.	.	.	.	8r	.	8r	.	8r	.	8r	.
4r	.	.	.	4r	.	8dd\	.	.	.	.	.	.	.	.	.	4r	.	4r	.	4r	.	4r	.
.	.	.	.	.	.	8cc\J)	.	.	.	.	.	.	.	.	.	.	.	.	.	.	.	.	.
!	!	!	!	!	!	!LO:LB:g=original	!	!	!	!	!	!	!	!	!	!	!	!	!	!	!	!	!
=6	=6	=6	=6	=6	=6	=6	=6	=6	=6	=6	=6	=6	=6	=6	=6	=6	=6	=6	=6	=6	=6	=6	=6
8E-\	.	2ryy	.	(16b-/LL	.	4b-\	.	2r	.	2r	.	.	.	.	.	8g\L	.	8b-y\L	.	4b-\	.	4bb-\	.
.	.	.	.	16g/)	.	.	.	.	.	.	.	.	.	.	.	.	.	.	.	.	.	.	.
8r	.	.	.	(16g/	.	.	.	.	.	.	.	.	.	.	.	16e-\L	.	16g\L	.	.	.	.	.
.	.	.	.	16b-/JJ)	.	.	.	.	.	.	.	.	.	.	.	16g\JJ	.	16b-\JJ	.	.	.	.	.
8BB-/	.	.	.	16b-/LL	.	8.aa-\L	.	.	.	.	.	.	.	.	.	16g\LL	.	16b-\LL	.	16ff\LL	.	16bb-\LL	.
.	.	.	.	16a-/	.	.	.	.	.	.	.	.	.	.	.	16f\	.	16a-\	.	16dd\	.	16aa-\	.
8r	.	.	.	16f/	.	.	.	.	.	.	.	.	.	.	.	16B-\	.	16g\	.	16b-\	.	16ff\	.
.	.	.	.	16a-/JJ	.	32ff\LL	.	.	.	.	.	.	.	.	.	16e-\JJ	.	16a-\JJ	.	16a-\JJ	.	16dd\JJ	.
.	.	.	.	.	.	32dd\JJJ	.	.	.	.	.	.	.	.	.	.	.	.	.	.	.	.	.
!LO:LB:g=original	!	!LO:LB:g=original	!	!	!	!	!	!	!	!	!	!	!	!	!	!	!	!	!	!	!	!	!
=7	=7	=7	=7	=7	=7	=7	=7	=7	=7	=7	=7	=7	=7	=7	=7	=7	=7	=7	=7	=7	=7	=7	=7
!LO:TX:a:t=P:problem=mixedbeam	!	!	!	!	!	!	!	!	!	!	!	!	!	!	!	!LO:TX:a:t=P:problem=mixedbeam	!	!	!	!	!	!	!
8E-\L	.	4r	.	8g/L	.	8ee-\L	.	2r	.	2r	.	.	.	.	.	8e-\L	.	8g\L	.	8g/	.	8ee-\	.
8BB-/	.	.	.	16b-/L	.	8b-\	.	.	.	.	.	.	.	.	.	8E-/	.	8e-\	.	8r	.	8r	.
.	.	.	.	16g/JJ	.	.	.	.	.	.	.	.	.	.	.	.	.	.	.	.	.	.	.
!	!	!	!	!	!	!LO:SIC:v:s=8e-\J	!	!	!	!	!	!	!	!	!	!	!	!	!	!	!	!	!
8EE-/J	.	8r	.	8e-/	.	8f\J	.	.	.	.	.	.	.	.	.	8E-/J	.	8e-\J	.	4r	.	4r	.
8r	.	32ee-\LLL	.	8r	.	8r	.	.	.	.	.	.	.	.	.	8r	.	8r	.	.	.	.	.
.	.	32dd\	.	.	.	.	.	.	.	.	.	.	.	.	.	.	.	.	.	.	.	.	.
.	.	32ee-\	.	.	.	.	.	.	.	.	.	.	.	.	.	.	.	.	.	.	.	.	.
.	.	32ff\JJJ	.	.	.	.	.	.	.	.	.	.	.	.	.	.	.	.	.	.	.	.	.
!	!	!	!	!	!	!	!	!	!	!	!	!	!	!	!	!	!	!	!	!	!	!LO:LB:g=original	!
=8	=8	=8	=8	=8	=8	=8	=8	=8	=8	=8	=8	=8	=8	=8	=8	=8	=8	=8	=8	=8	=8	=8	=8
*clefG2	*	*	*	*	*	*	*	*	*	*	*	*	*	*	*	*	*	*	*	*	*	*	*
16e-/LL	.	8ee-\L	.	0r	.	0r	.	2r	.	2r	.	.	.	.	.	0r	.	0r	.	0r	.	0r	.
16b-/	.	.	.	.	.	.	.	.	.	.	.	.	.	.	.	.	.	.	.	.	.	.	.
16g/	.	8ee-\J	.	.	.	.	.	.	.	.	.	.	.	.	.	.	.	.	.	.	.	.	.
16b-/JJ	.	.	.	.	.	.	.	.	.	.	.	.	.	.	.	.	.	.	.	.	.	.	.
16e-/LL	.	32ee-\LLL	.	.	.	.	.	.	.	.	.	.	.	.	.	.	.	.	.	.	.	.	.
.	.	32dd\	.	.	.	.	.	.	.	.	.	.	.	.	.	.	.	.	.	.	.	.	.
16b-/	.	32ee-\	.	.	.	.	.	.	.	.	.	.	.	.	.	.	.	.	.	.	.	.	.
.	.	32ff\JJJ	.	.	.	.	.	.	.	.	.	.	.	.	.	.	.	.	.	.	.	.	.
16g/	.	16ff\LL	.	.	.	.	.	.	.	.	.	.	.	.	.	.	.	.	.	.	.	.	.
16b-/JJ	.	16gg\JJ	.	.	.	.	.	.	.	.	.	.	.	.	.	.	.	.	.	.	.	.	.
=9	=9	=9	=9	=9	=9	=9	=9	=9	=9	=9	=9	=9	=9	=9	=9	=9	=9	=9	=9	=9	=9	=9	=9
16e-/LL	.	(32gg\LLL	.	.	.	.	.	2r	.	2r	.	0r	.	0r	.	.	.	.	.	.	.	.	.
.	.	32ff\	.	.	.	.	.	.	.	.	.	.	.	.	.	.	.	.	.	.	.	.	.
16cc/	.	32een\	.	.	.	.	.	.	.	.	.	.	.	.	.	.	.	.	.	.	.	.	.
.	.	32ff\JJ)	.	.	.	.	.	.	.	.	.	.	.	.	.	.	.	.	.	.	.	.	.
16a-/	.	8ff\J	.	.	.	.	.	.	.	.	.	.	.	.	.	.	.	.	.	.	.	.	.
16cc/JJ	.	.	.	.	.	.	.	.	.	.	.	.	.	.	.	.	.	.	.	.	.	.	.
16e-/LL	.	8r	.	.	.	.	.	.	.	.	.	.	.	.	.	.	.	.	.	.	.	.	.
16cc/	.	.	.	.	.	.	.	.	.	.	.	.	.	.	.	.	.	.	.	.	.	.	.
16a-/	.	(32ff\LLL	.	.	.	.	.	.	.	.	.	.	.	.	.	.	.	.	.	.	.	.	.
.	.	32ee\	.	.	.	.	.	.	.	.	.	.	.	.	.	.	.	.	.	.	.	.	.
16cc/JJ	.	32ff\	.	.	.	.	.	.	.	.	.	.	.	.	.	.	.	.	.	.	.	.	.
.	.	32gg\JJJ)	.	.	.	.	.	.	.	.	.	.	.	.	.	.	.	.	.	.	.	.	.
=10	=10	=10	=10	=10	=10	=10	=10	=10	=10	=10	=10	=10	=10	=10	=10	=10	=10	=10	=10	=10	=10	=10	=10
16d/LL	.	8ff\L	.	.	.	.	.	2r	.	2r	.	.	.	.	.	.	.	.	.	.	.	.	.
16b-/	.	.	.	.	.	.	.	.	.	.	.	.	.	.	.	.	.	.	.	.	.	.	.
16d/	.	8ff\J	.	.	.	.	.	.	.	.	.	.	.	.	.	.	.	.	.	.	.	.	.
16b-/JJ	.	.	.	.	.	.	.	.	.	.	.	.	.	.	.	.	.	.	.	.	.	.	.
16d/LL	.	32ff\LLL	.	.	.	.	.	.	.	.	.	.	.	.	.	.	.	.	.	.	.	.	.
.	.	32ee-\	.	.	.	.	.	.	.	.	.	.	.	.	.	.	.	.	.	.	.	.	.
16b-/	.	32ff\	.	.	.	.	.	.	.	.	.	.	.	.	.	.	.	.	.	.	.	.	.
.	.	32gg\JJJ	.	.	.	.	.	.	.	.	.	.	.	.	.	.	.	.	.	.	.	.	.
16f/	.	16ff\LL	.	.	.	.	.	.	.	.	.	.	.	.	.	.	.	.	.	.	.	.	.
16b-/JJ	.	16aa-\JJ	.	.	.	.	.	.	.	.	.	.	.	.	.	.	.	.	.	.	.	.	.
=11	=11	=11	=11	=11	=11	=11	=11	=11	=11	=11	=11	=11	=11	=11	=11	=11	=11	=11	=11	=11	=11	=11	=11
16e-/LL	.	32aa-\LLL	.	.	.	.	.	2r	.	2r	.	.	.	.	.	.	.	.	.	.	.	.	.
.	.	32gg\	.	.	.	.	.	.	.	.	.	.	.	.	.	.	.	.	.	.	.	.	.
16b-/	.	32ff\	.	.	.	.	.	.	.	.	.	.	.	.	.	.	.	.	.	.	.	.	.
.	.	32gg\JJ	.	.	.	.	.	.	.	.	.	.	.	.	.	.	.	.	.	.	.	.	.
16g/	.	8gg\J	.	.	.	.	.	.	.	.	.	.	.	.	.	.	.	.	.	.	.	.	.
16b-/JJ	.	.	.	.	.	.	.	.	.	.	.	.	.	.	.	.	.	.	.	.	.	.	.
!LO:LB:g=original	!	!LO:LB:g=original	!	!	!	!	!	!	!	!	!	!	!	!	!	!	!	!	!	!	!	!	!
=-	=-	=-	=-	=-	=-	=-	=-	=-	=-	=-	=-	=-	=-	=-	=-	=-	=-	=-	=-	=-	=-	=-	=-
16e-/LL	.	8r	.	.	.	.	.	.	.	.	.	.	.	.	.	.	.	.	.	.	.	.	.
16b-/	.	.	.	.	.	.	.	.	.	.	.	.	.	.	.	.	.	.	.	.	.	.	.
16g/	.	32aa-\LLL	.	.	.	.	.	.	.	.	.	.	.	.	.	.	.	.	.	.	.	.	.
.	.	32gg\	.	.	.	.	.	.	.	.	.	.	.	.	.	.	.	.	.	.	.	.	.
16b-/JJ	.	32ff\	.	.	.	.	.	.	.	.	.	.	.	.	.	.	.	.	.	.	.	.	.
.	.	32gg\JJJ	.	.	.	.	.	.	.	.	.	.	.	.	.	.	.	.	.	.	.	.	.
=12	=12	=12	=12	=12	=12	=12	=12	=12	=12	=12	=12	=12	=12	=12	=12	=12	=12	=12	=12	=12	=12	=12	=12
*clefF4	*	*	*	*	*	*	*	*	*	*	*	*	*	*	*	*	*	*	*	*	*	*	*
16A-X\LL	.	32ff\LLL	.	1r	.	1r	.	2r	.	2r	.	.	.	.	.	2r	.	2r	.	2r	.	2r	.
.	.	32gg\	.	.	.	.	.	.	.	.	.	.	.	.	.	.	.	.	.	.	.	.	.
16f\	.	32ff\	.	.	.	.	.	.	.	.	.	.	.	.	.	.	.	.	.	.	.	.	.
.	.	32gg\JJJ	.	.	.	.	.	.	.	.	.	.	.	.	.	.	.	.	.	.	.	.	.
16c\	.	32aa-\LLL	.	.	.	.	.	.	.	.	.	.	.	.	.	.	.	.	.	.	.	.	.
.	.	32bb-\	.	.	.	.	.	.	.	.	.	.	.	.	.	.	.	.	.	.	.	.	.
16f\JJ	.	32aa-\	.	.	.	.	.	.	.	.	.	.	.	.	.	.	.	.	.	.	.	.	.
.	.	32bb-\JJJ	.	.	.	.	.	.	.	.	.	.	.	.	.	.	.	.	.	.	.	.	.
16A-\LL	.	16ccc\LL	.	.	.	.	.	.	.	.	.	.	.	.	.	.	.	.	.	.	.	.	.
16f\	.	16aa-\	.	.	.	.	.	.	.	.	.	.	.	.	.	.	.	.	.	.	.	.	.
16An\	.	16ff\	.	.	.	.	.	.	.	.	.	.	.	.	.	.	.	.	.	.	.	.	.
16f\JJ	.	16ee-\JJ	.	.	.	.	.	.	.	.	.	.	.	.	.	.	.	.	.	.	.	.	.
=13	=13	=13	=13	=13	=13	=13	=13	=13	=13	=13	=13	=13	=13	=13	=13	=13	=13	=13	=13	=13	=13	=13	=13
!LO:TX:a:t=P:problem=mixedbeam	!	!	!	!	!	!	!	!	!	!	!	!	!	!	!	!	!	!	!	!	!	!	!
.	.	16qqff/	.	.	.	.	.	.	.	.	.	.	.	.	.	.	.	.	.	.	.	.	.
8B-\L	.	16ee-\LL	.	.	.	.	.	2r	.	2r	.	0r	.	0r	.	8r	.	8r	.	8r	.	8r	.
.	.	32dd\L	.	.	.	.	.	.	.	.	.	.	.	.	.	.	.	.	.	.	.	.	.
.	.	32ee-\JJ	.	.	.	.	.	.	.	.	.	.	.	.	.	.	.	.	.	.	.	.	.
8BB-/J	.	8dd\J	.	.	.	.	.	.	.	.	.	.	.	.	.	8B-/L	.	8b-\L	.	8b-\L	.	8bb-\L	.
4r	.	4r	.	.	.	.	.	.	.	.	.	.	.	.	.	8B-/	.	8b-\	.	8b-\	.	8bb-\	.
.	.	.	.	.	.	.	.	.	.	.	.	.	.	.	.	8B-/J	.	8b-\J	.	8b-\J	.	8bb-\J	.
!	!	!	!	!	!	!	!	!	!	!	!	!	!	!	!	!	!	!	!	!LO:LB:g=original	!	!	!
=14	=14	=14	=14	=14	=14	=14	=14	=14	=14	=14	=14	=14	=14	=14	=14	=14	=14	=14	=14	=14	=14	=14	=14
*	*	*	*	*	*	*	*	*	*	*	*	*	*	*	*	*	*	*	*	*2\right	*	*2\right	*
!	!	!	!	!	!LO:DY:a:t=p.	!	!LO:DY:a:t=p&colon;	!	!	!	!	!	!	!	!	!	!	!	!	!	!	!	!
16D\LL	.	32aa-X\LLL	.	8a-X/	p	8b-\	p	2r	.	2r	.	.	.	.	.	8B-/	.	8f\	.	2ff\	.	2aa-\	.
.	.	32bb-\	.	.	.	.	.	.	.	.	.	.	.	.	.	.	.	.	.	.	.	.	.
16B-\	.	32aa-\	.	.	.	.	.	.	.	.	.	.	.	.	.	.	.	.	.	.	.	.	.
.	.	32gg\JJJ	.	.	.	.	.	.	.	.	.	.	.	.	.	.	.	.	.	.	.	.	.
16F\	.	32ff\LLL	.	8r	.	8r	.	.	.	.	.	.	.	.	.	8r	.	8r	.	.	.	.	.
.	.	32gg\	.	.	.	.	.	.	.	.	.	.	.	.	.	.	.	.	.	.	.	.	.
16B-\JJ	.	32ff\	.	.	.	.	.	.	.	.	.	.	.	.	.	.	.	.	.	.	.	.	.
.	.	32ee-\JJJ	.	.	.	.	.	.	.	.	.	.	.	.	.	.	.	.	.	.	.	.	.
16D\LL	.	32dd\LLL	.	8a-/	.	8b-\	.	.	.	.	.	.	.	.	.	8B-/	.	8f\	.	.	.	.	.
.	.	32ee-\	.	.	.	.	.	.	.	.	.	.	.	.	.	.	.	.	.	.	.	.	.
16B-\	.	32dd\	.	.	.	.	.	.	.	.	.	.	.	.	.	.	.	.	.	.	.	.	.
.	.	32cc\JJJ	.	.	.	.	.	.	.	.	.	.	.	.	.	.	.	.	.	.	.	.	.
16F\	.	32b-/LLL	.	8r	.	8r	.	.	.	.	.	.	.	.	.	8r	.	8r	.	.	.	.	.
.	.	32cc/	.	.	.	.	.	.	.	.	.	.	.	.	.	.	.	.	.	.	.	.	.
16B-\JJ	.	32b-/	.	.	.	.	.	.	.	.	.	.	.	.	.	.	.	.	.	.	.	.	.
.	.	32a-/JJJ	.	.	.	.	.	.	.	.	.	.	.	.	.	.	.	.	.	.	.	.	.
=15	=15	=15	=15	=15	=15	=15	=15	=15	=15	=15	=15	=15	=15	=15	=15	=15	=15	=15	=15	=15	=15	=15	=15
16E-\LL	.	32g/LLL	.	8g/	.	8b-\	.	2r	.	2r	.	.	.	.	.	8e-\	.	8g\	.	2ee-\	.	2gg\	.
.	.	32e-/	.	.	.	.	.	.	.	.	.	.	.	.	.	.	.	.	.	.	.	.	.
16B-\	.	32b-/	.	.	.	.	.	.	.	.	.	.	.	.	.	.	.	.	.	.	.	.	.
.	.	32g/JJJ	.	.	.	.	.	.	.	.	.	.	.	.	.	.	.	.	.	.	.	.	.
16G\	.	32ee-\LLL	.	8r	.	8r	.	.	.	.	.	.	.	.	.	8r	.	8r	.	.	.	.	.
.	.	32b-\	.	.	.	.	.	.	.	.	.	.	.	.	.	.	.	.	.	.	.	.	.
16B-\JJ	.	32gg\	.	.	.	.	.	.	.	.	.	.	.	.	.	.	.	.	.	.	.	.	.
.	.	32ee-\JJJ	.	.	.	.	.	.	.	.	.	.	.	.	.	.	.	.	.	.	.	.	.
!LO:LB:g=original	!	!LO:LB:g=original	!	!	!	!	!	!	!	!	!	!	!	!	!	!	!	!	!	!	!	!	!
=-	=-	=-	=-	=-	=-	=-	=-	=-	=-	=-	=-	=-	=-	=-	=-	=-	=-	=-	=-	=-	=-	=-	=-
16E-\LL	.	32bb-\LLL	.	8g/	.	8b-\	.	.	.	.	.	.	.	.	.	8e-\	.	8g\	.	.	.	.	.
.	.	32gg\	.	.	.	.	.	.	.	.	.	.	.	.	.	.	.	.	.	.	.	.	.
16B-\	.	32ff\	.	.	.	.	.	.	.	.	.	.	.	.	.	.	.	.	.	.	.	.	.
.	.	32ee-\JJJ	.	.	.	.	.	.	.	.	.	.	.	.	.	.	.	.	.	.	.	.	.
16G\	.	32dd\LLL	.	8r	.	8r	.	.	.	.	.	.	.	.	.	8r	.	8r	.	.	.	.	.
.	.	32ee-\	.	.	.	.	.	.	.	.	.	.	.	.	.	.	.	.	.	.	.	.	.
16B-\JJ	.	32ff\	.	.	.	.	.	.	.	.	.	.	.	.	.	.	.	.	.	.	.	.	.
.	.	32gg\JJJ	.	.	.	.	.	.	.	.	.	.	.	.	.	.	.	.	.	.	.	.	.
!	!	!	!	!	!	!	!	!	!	!	!	!	!	!	!	!	!	!LO:LB:g=original	!	!	!	!	!
=16	=16	=16	=16	=16	=16	=16	=16	=16	=16	=16	=16	=16	=16	=16	=16	=16	=16	=16	=16	=16	=16	=16	=16
16D\LL	.	32aa-\LLL	.	8a-/	.	8b-\	.	2r	.	2r	.	.	.	.	.	8B-/	.	8f\	.	2ff\	.	2aa-\	.
.	.	32bb-\	.	.	.	.	.	.	.	.	.	.	.	.	.	.	.	.	.	.	.	.	.
16B-\	.	32aa-\	.	.	.	.	.	.	.	.	.	.	.	.	.	.	.	.	.	.	.	.	.
.	.	32gg\JJJ	.	.	.	.	.	.	.	.	.	.	.	.	.	.	.	.	.	.	.	.	.
16F\	.	32ff\LLL	.	8r	.	8r	.	.	.	.	.	.	.	.	.	8r	.	8r	.	.	.	.	.
.	.	32gg\	.	.	.	.	.	.	.	.	.	.	.	.	.	.	.	.	.	.	.	.	.
16B-\JJ	.	32ff\	.	.	.	.	.	.	.	.	.	.	.	.	.	.	.	.	.	.	.	.	.
.	.	32ee-\JJJ	.	.	.	.	.	.	.	.	.	.	.	.	.	.	.	.	.	.	.	.	.
16D\LL	.	32dd\LLL	.	8a-/	.	8b-\	.	.	.	.	.	.	.	.	.	8B-/	.	8f\	.	.	.	.	.
.	.	32ee-\	.	.	.	.	.	.	.	.	.	.	.	.	.	.	.	.	.	.	.	.	.
16B-\	.	32dd\	.	.	.	.	.	.	.	.	.	.	.	.	.	.	.	.	.	.	.	.	.
.	.	32cc\JJJ	.	.	.	.	.	.	.	.	.	.	.	.	.	.	.	.	.	.	.	.	.
16F\	.	32b-\LLL	.	8r	.	8r	.	.	.	.	.	.	.	.	.	8r	.	8r	.	.	.	.	.
.	.	32cc\	.	.	.	.	.	.	.	.	.	.	.	.	.	.	.	.	.	.	.	.	.
16B-\JJ	.	32b-\	.	.	.	.	.	.	.	.	.	.	.	.	.	.	.	.	.	.	.	.	.
.	.	32a-\JJJ	.	.	.	.	.	.	.	.	.	.	.	.	.	.	.	.	.	.	.	.	.
!	!	!	!	!	!	!	!	!	!	!	!	!	!	!	!	!LO:LB:g=original	!	!	!	!	!	!	!
=17	=17	=17	=17	=17	=17	=17	=17	=17	=17	=17	=17	=17	=17	=17	=17	=17	=17	=17	=17	=17	=17	=17	=17
!	!	!LO:TX:a:t=P:problem=mixedbeam	!	!	!	!	!	!	!	!	!	!	!	!	!	!	!	!	!	!	!	!	!
16E-\LL	.	32g/LLL	.	8g/	.	8b-\	.	2r	.	2r	.	0r	.	0r	.	8e-\	.	8g\	.	8ee-\	.	8gg\	.
.	.	32ee-\	.	.	.	.	.	.	.	.	.	.	.	.	.	.	.	.	.	.	.	.	.
16B-\	.	32dd\	.	.	.	.	.	.	.	.	.	.	.	.	.	.	.	.	.	.	.	.	.
.	.	32ee-\JJJ	.	.	.	.	.	.	.	.	.	.	.	.	.	.	.	.	.	.	.	.	.
16G\	.	32ff\LLL	.	8r	.	8r	.	.	.	.	.	.	.	.	.	8r	.	8r	.	8r	.	8r	.
.	.	32ee-\	.	.	.	.	.	.	.	.	.	.	.	.	.	.	.	.	.	.	.	.	.
16B-\JJ	.	32dd\	.	.	.	.	.	.	.	.	.	.	.	.	.	.	.	.	.	.	.	.	.
.	.	32ee-\JJJ	.	.	.	.	.	.	.	.	.	.	.	.	.	.	.	.	.	.	.	.	.
16G\LL	.	32bb-\LLL	.	4r	.	4r	.	.	.	.	.	.	.	.	.	4r	.	4r	.	4r	.	4r	.
.	.	32dd-X\	.	.	.	.	.	.	.	.	.	.	.	.	.	.	.	.	.	.	.	.	.
16e-\	.	32cc\	.	.	.	.	.	.	.	.	.	.	.	.	.	.	.	.	.	.	.	.	.
.	.	32dd-\JJJ	.	.	.	.	.	.	.	.	.	.	.	.	.	.	.	.	.	.	.	.	.
16B-\	.	32ee-\LLL	.	.	.	.	.	.	.	.	.	.	.	.	.	.	.	.	.	.	.	.	.
.	.	32dd-\	.	.	.	.	.	.	.	.	.	.	.	.	.	.	.	.	.	.	.	.	.
16e-\JJ	.	32cc\	.	.	.	.	.	.	.	.	.	.	.	.	.	.	.	.	.	.	.	.	.
.	.	32dd-\JJJ	.	.	.	.	.	.	.	.	.	.	.	.	.	.	.	.	.	.	.	.	.
=18	=18	=18	=18	=18	=18	=18	=18	=18	=18	=18	=18	=18	=18	=18	=18	=18	=18	=18	=18	=18	=18	=18	=18
8A-\	.	16cc\LL	.	2r	.	2r	.	2r	.	2r	.	.	.	.	.	1r	.	1r	.	1r	.	1r	.
.	.	32ff\L	.	.	.	.	.	.	.	.	.	.	.	.	.	.	.	.	.	.	.	.	.
.	.	32een\JJJ	.	.	.	.	.	.	.	.	.	.	.	.	.	.	.	.	.	.	.	.	.
8r	.	32gg\LLL	.	.	.	.	.	.	.	.	.	.	.	.	.	.	.	.	.	.	.	.	.
.	.	32ff\	.	.	.	.	.	.	.	.	.	.	.	.	.	.	.	.	.	.	.	.	.
.	.	32aa-\	.	.	.	.	.	.	.	.	.	.	.	.	.	.	.	.	.	.	.	.	.
.	.	32gg\JJJ	.	.	.	.	.	.	.	.	.	.	.	.	.	.	.	.	.	.	.	.	.
!LO:LB:g=original	!	!LO:LB:g=original	!	!	!	!	!	!	!	!	!	!	!	!	!	!	!	!	!	!	!	!	!
=-	=-	=-	=-	=-	=-	=-	=-	=-	=-	=-	=-	=-	=-	=-	=-	=-	=-	=-	=-	=-	=-	=-	=-
8r	.	32bb-\LLL	.	.	.	.	.	.	.	.	.	.	.	.	.	.	.	.	.	.	.	.	.
.	.	32aan\	.	.	.	.	.	.	.	.	.	.	.	.	.	.	.	.	.	.	.	.	.
.	.	32bb-\	.	.	.	.	.	.	.	.	.	.	.	.	.	.	.	.	.	.	.	.	.
.	.	32ccc\JJJ	.	.	.	.	.	.	.	.	.	.	.	.	.	.	.	.	.	.	.	.	.
8A-\ 8f	.	32bb-X\LLL	.	.	.	.	.	.	.	.	.	.	.	.	.	.	.	.	.	.	.	.	.
.	.	32aa\	.	.	.	.	.	.	.	.	.	.	.	.	.	.	.	.	.	.	.	.	.
.	.	32gg\	.	.	.	.	.	.	.	.	.	.	.	.	.	.	.	.	.	.	.	.	.
.	.	32ff\JJJ	.	.	.	.	.	.	.	.	.	.	.	.	.	.	.	.	.	.	.	.	.
=19	=19	=19	=19	=19	=19	=19	=19	=19	=19	=19	=19	=19	=19	=19	=19	=19	=19	=19	=19	=19	=19	=19	=19
*	*	*	*	*	*	*tremolo	*	*	*	*	*	*	*	*	*	*	*	*	*	*	*	*	*
16B-\LL	.	16ee-\LL	.	16e-/LL	.	16g/LL	.	2r	.	2r	.	.	.	.	.	.	.	.	.	.	.	.	.
16g\	.	16bb-\JJ	.	16d/J	.	16g/	.	.	.	.	.	.	.	.	.	.	.	.	.	.	.	.	.
16e-\	.	32aa-\LLL	.	8e-/J	.	16g/	.	.	.	.	.	.	.	.	.	.	.	.	.	.	.	.	.
.	.	32gg\	.	.	.	.	.	.	.	.	.	.	.	.	.	.	.	.	.	.	.	.	.
16g\JJ	.	32ff\	.	.	.	16g/JJ	.	.	.	.	.	.	.	.	.	.	.	.	.	.	.	.	.
.	.	32ee-\JJJ	.	.	.	.	.	.	.	.	.	.	.	.	.	.	.	.	.	.	.	.	.
!	!	!	!	!LO:LB:g=original	!	!	!	!	!	!	!	!	!	!	!	!	!	!	!	!	!	!	!
=-	=-	=-	=-	=-	=-	=-	=-	=-	=-	=-	=-	=-	=-	=-	=-	=-	=-	=-	=-	=-	=-	=-	=-
16B-\LL	.	4ffT\	.	8r	.	16a-/LL	.	.	.	.	.	.	.	.	.	.	.	.	.	.	.	.	.
16f\	.	.	.	.	.	16a-/	.	.	.	.	.	.	.	.	.	.	.	.	.	.	.	.	.
16d\	.	.	.	8f/	.	16a-/	.	.	.	.	.	.	.	.	.	.	.	.	.	.	.	.	.
16f\JJ	.	.	.	.	.	16a-/JJ	.	.	.	.	.	.	.	.	.	.	.	.	.	.	.	.	.
*	*	*	*	*	*	*Xtremolo	*	*	*	*	*	*	*	*	*	*	*	*	*	*	*	*	*
=20	=20	=20	=20	=20	=20	=20	=20	=20	=20	=20	=20	=20	=20	=20	=20	=20	=20	=20	=20	=20	=20	=20	=20
8e-\	.	8ee-\	.	8g/	.	8g/	.	2r	.	2r	.	.	.	.	.	16r	.	16r	.	16g/LL	.	16ee-\LL	.
.	.	.	.	.	.	.	.	.	.	.	.	.	.	.	.	16e-\LL	.	16g\LL	.	16ee-/JJ	.	16gg\	.
8r	.	8r	.	8r	.	8r	.	.	.	.	.	.	.	.	.	16f\	.	16a-\	.	16ff\LL	.	16aa-\	.
.	.	.	.	.	.	.	.	.	.	.	.	.	.	.	.	16g\JJ	.	16b-\JJ	.	16gg\JJ	.	16bb-\JJ	.
8r	.	4r	.	8r	.	8r	.	.	.	.	.	.	.	.	.	16g\LL	.	16b-\LL	.	(16gg\LL	.	16bb-\LL	.
.	.	.	.	.	.	.	.	.	.	.	.	.	.	.	.	16f\	.	16a-\	.	16ff\)	.	16aa-\	.
8B-\	7	.	.	8f/	.	8dd\	.	.	.	.	.	.	.	.	.	16B-\	.	16g\	.	(16dd\	.	16ff\	.
.	.	.	.	.	.	.	.	.	.	.	.	.	.	.	.	16f\JJ	.	16a-\JJ	.	16ff\JJ)	.	16aa-\JJ	.
!	!	!	!	!	!	!LO:LB:g=original	!	!	!	!	!	!	!	!	!	!	!	!	!	!	!	!	!
=21	=21	=21	=21	=21	=21	=21	=21	=21	=21	=21	=21	=21	=21	=21	=21	=21	=21	=21	=21	=21	=21	=21	=21
8E-\	.	2ryy	.	4f/	.	8ee-\	.	2r	.	2r	.	0r	.	1r	.	16e-\LL	.	16g\LL	.	(16ee-\LL	.	16gg\LL	.
.	.	.	.	.	.	.	.	.	.	.	.	.	.	.	.	16e-\	.	16g\	.	16ee-\)	.	16gg\	.
8r	.	.	.	.	.	8r	.	.	.	.	.	.	.	.	.	16f\	.	16a-\	.	(16ff\	.	16aa-\	.
.	.	.	.	.	.	.	.	.	.	.	.	.	.	.	.	16g\JJ	.	16b-\JJ	.	16gg\JJ)	.	16bb-\JJ	.
8r	.	.	.	8g/	.	8r	.	.	.	.	.	.	.	.	.	16g\LL	.	16b-\LL	.	(16gg\LL	.	16bb-\LL	.
.	.	.	.	.	.	.	.	.	.	.	.	.	.	.	.	16f\	.	16a-\	.	16ff\)	.	16aa-\	.
8BB-/	.	.	.	8r	.	8dd\	.	.	.	.	.	.	.	.	.	16B-\	.	16f\	.	(16dd\	.	16ff\	.
.	.	.	.	.	.	.	.	.	.	.	.	.	.	.	.	16f\JJ	.	16a-\JJ	.	16ff\JJ)	.	16aa-\JJ	.
!	!	!	!	!	!	!	!	!	!	!	!	!	!	!	!	!	!	!	!	!	!	!LO:PB:g=original	!
=22	=22	=22	=22	=22	=22	=22	=22	=22	=22	=22	=22	=22	=22	=22	=22	=22	=22	=22	=22	=22	=22	=22	=22
!LO:TX:a:t=P:problem=mixedbeam	!	!	!	!	!	!	!	!	!	!	!	!	!	!	!	!	!	!	!	!	!	!	!
8E-\L	9	2ryy	.	2r	.	4dd\	.	2r	.	2r	.	.	.	.	.	4f\	.	(4a-\	.	4ff\	.	4aa-\	.
8BB-/	2	.	.	.	.	.	.	.	.	.	.	.	.	.	.	.	.	.	.	.	.	.	.
8EE-/J	.	.	.	.	.	8ee-\	.	.	.	.	.	.	.	.	.	8e-\	.	8g\)	.	8ee-\	.	8gg\	.
8r	.	.	.	.	.	8r	.	.	.	.	.	.	.	.	.	8r	.	8r	.	8r	.	8r	.
=23	=23	=23	=23	=23	=23	=23	=23	=23	=23	=23	=23	=23	=23	=23	=23	=23	=23	=23	=23	=23	=23	=23	=23
!	!	!	!	!	!	!	!	!	!	!	!	!	!	!	!	!	!	!	!	!	!	!LO:TX:a:t=14	!
8E-\	.	2ryy	.	8r	.	4.b-\	.	2r	.	2r	.	.	.	4.b-\	Be-	1r	.	1r	.	0r	.	2r	.
8r	.	.	.	16e-/LL	.	.	.	.	.	.	.	.	.	.	.	.	.	.	.	.	.	.	.
.	.	.	.	16e-/JJ	.	.	.	.	.	.	.	.	.	.	.	.	.	.	.	.	.	.	.
4r	.	.	.	(16f/LL	.	.	.	.	.	.	.	.	.	.	.	.	.	.	.	.	.	.	.
.	.	.	.	16e-/)	.	.	.	.	.	.	.	.	.	.	.	.	.	.	.	.	.	.	.
.	.	.	.	(16e-/	.	8b-\	.	.	.	.	.	.	.	8b-\	-ne-	.	.	.	.	.	.	.	.
.	.	.	.	16g/JJ)	.	.	.	.	.	.	.	.	.	.	.	.	.	.	.	.	.	.	.
=24	=24	=24	=24	=24	=24	=24	=24	=24	=24	=24	=24	=24	=24	=24	=24	=24	=24	=24	=24	=24	=24	=24	=24
*	*	*	*	*	*	*	*	*	*	*	*	*	*	*2\right	*	*	*	*	*	*	*	*	*
8BB-/	.	2ryy	.	(16g/LL	.	2b-\	.	2r	.	2r	.	.	.	2b-\	-di-	.	.	.	.	.	.	2r	.
.	.	.	.	16f/)	.	.	.	.	.	.	.	.	.	.	.	.	.	.	.	.	.	.	.
8r	.	.	.	16f|</	.	.	.	.	.	.	.	.	.	.	.	.	.	.	.	.	.	.	.
.	.	.	.	16f|</JJ	.	.	.	.	.	.	.	.	.	.	.	.	.	.	.	.	.	.	.
4r	.	.	.	16f/LL	.	.	.	.	.	.	.	.	.	.	.	.	.	.	.	.	.	.	.
.	.	.	.	16g/	.	.	.	.	.	.	.	.	.	.	.	.	.	.	.	.	.	.	.
.	.	.	.	16g/	.	.	.	.	.	.	.	.	.	.	.	.	.	.	.	.	.	.	.
.	.	.	.	16a-/JJ	.	.	.	.	.	.	.	.	.	.	.	.	.	.	.	.	.	.	.
!LO:PB:g=original	!	!LO:PB:g=original	!	!	!	!	!	!	!	!	!	!	!	!	!	!	!	!	!	!	!	!	!
=25	=25	=25	=25	=25	=25	=25	=25	=25	=25	=25	=25	=25	=25	=25	=25	=25	=25	=25	=25	=25	=25	=25	=25
8E-\	.	2ryy	.	8g/	.	8b-\L	.	2r	.	2r	.	0r	.	8b-\L	-ctus	2r	.	2r	.	.	.	2r	.
8r	.	.	.	8r	.	8ee-\	.	.	.	.	.	.	.	8ee-\J	.	.	.	.	.	.	.	.	.
4r	.	.	.	4r	.	8dd\	.	.	.	.	.	.	.	8dd\	qui	.	.	.	.	.	.	.	.
.	.	.	.	.	.	8cc\J	.	.	.	.	.	.	.	8cc\	.	.	.	.	.	.	.	.	.
=26	=26	=26	=26	=26	=26	=26	=26	=26	=26	=26	=26	=26	=26	=26	=26	=26	=26	=26	=26	=26	=26	=26	=26
!	!	!	!	!	!	!	!	!	!	!	!	!	!	!	!	!	!	!	!LO:DY:a:t=p.	!	!	!	!
8E-\	.	2ryy	.	8g/L	.	8b-/L	.	2r	.	2r	.	.	.	4b-\	Ve-	8e-\	.	8g\	p	.	.	2r	.
8r	.	.	.	16e-/L	.	16g/L	.	.	.	.	.	.	.	.	.	8r	.	8r	.	.	.	.	.
.	.	.	.	16g/JJ	.	16b-/JJ	.	.	.	.	.	.	.	.	.	.	.	.	.	.	.	.	.
.	.	.	.	.	.	16qqb-/	.	.	.	.	.	.	.	.	.	.	.	.	.	.	.	.	.
8BB-/	7	.	.	8f/L	.	8a-/L	.	.	.	.	.	.	.	4a-\	.	8B-/	.	8f\	.	.	.	.	.
8r	.	.	.	16d/L	.	16f/L	.	.	.	.	.	.	.	.	.	8r	.	8r	.	.	.	.	.
.	.	.	.	16f/JJ	.	16a-/JJ	.	.	.	.	.	.	.	.	.	.	.	.	.	.	.	.	.
=27	=27	=27	=27	=27	=27	=27	=27	=27	=27	=27	=27	=27	=27	=27	=27	=27	=27	=27	=27	=27	=27	=27	=27
8EE-/	.	2ryy	.	8e-/	.	8b-\L	.	2r	.	2r	.	.	.	8g\	-nit	8e-\	.	8g\	.	0r	.	2r	.
8r	.	.	.	8r	.	8ee-\	.	.	.	.	.	.	.	8ee-\	.	8r	.	8r	.	.	.	.	.
4r	.	.	.	4r	.	8dd\	.	.	.	.	.	.	.	8dd\L	qui	4r	.	4r	.	.	.	.	.
.	.	.	.	.	.	8cc\J	.	.	.	.	.	.	.	8cc\J	.	.	.	.	.	.	.	.	.
=28	=28	=28	=28	=28	=28	=28	=28	=28	=28	=28	=28	=28	=28	=28	=28	=28	=28	=28	=28	=28	=28	=28	=28
8E-\	.	2ryy	.	16g/LL	.	16b-\LL	.	2r	.	2r	.	.	.	16b-\LL	ve-	4r	.	8g\	.	.	.	2r	.
.	.	.	.	16b-/	.	16ee-\	.	.	.	.	.	.	.	16ee-\	.	.	.	.	.	.	.	.	.
8r	.	.	.	16g/	.	16gg\	.	.	.	.	.	.	.	16gg\	.	.	.	8r	.	.	.	.	.
.	.	.	.	16b-/JJ	.	16bb-\JJ	.	.	.	.	.	.	.	16bb-\JJ	.	.	.	.	.	.	.	.	.
!	!	!	!	!LO:LB:g=original	!	!	!	!	!	!	!	!	!	!	!	!	!	!	!	!	!	!	!
=-	=-	=-	=-	=-	=-	=-	=-	=-	=-	=-	=-	=-	=-	=-	=-	=-	=-	=-	=-	=-	=-	=-	=-
8BB-/	7	.	.	16a-/LL	.	16bb-\LL	.	.	.	.	.	.	.	16bb-\LL	.	4B-/	.	8f\	.	.	.	.	.
.	.	.	.	16b-/	.	16aa-\	.	.	.	.	.	.	.	16aa-\	.	.	.	.	.	.	.	.	.
8r	.	.	.	16a-/	.	16ff\	.	.	.	.	.	.	.	16ff\	.	.	.	8r	.	.	.	.	.
.	.	.	.	16b-/JJ	.	16dd\JJ	.	.	.	.	.	.	.	16dd\JJ	.	.	.	.	.	.	.	.	.
!	!	!	!	!	!	!LO:LB:g=original	!	!	!	!	!	!	!	!	!	!	!	!	!	!	!	!	!
=29	=29	=29	=29	=29	=29	=29	=29	=29	=29	=29	=29	=29	=29	=29	=29	=29	=29	=29	=29	=29	=29	=29	=29
!LO:TX:a:t=P:problem=mixedbeam	!	!	!	!	!	!	!	!	!	!	!	!	!	!	!	!	!	!	!	!	!	!	!
8E-\L	.	2ryy	.	8.g/L	.	8.ee-\L	.	2r	.	2r	.	1r	.	8.ee-\	-nit	0r	.	8g\	.	.	.	2r	.
8EE-/J	.	.	.	.	.	.	.	.	.	.	.	.	.	.	.	.	.	8r	.	.	.	.	.
.	.	.	.	16g/Jk	.	16b-\Jk	.	.	.	.	.	.	.	16b-\	in	.	.	.	.	.	.	.	.
!	!	!	!	!	!	!	!	!	!	!	!	!	!	!LO:LB:g=original	!	!	!	!	!	!	!	!	!
=-	=-	=-	=-	=-	=-	=-	=-	=-	=-	=-	=-	=-	=-	=-	=-	=-	=-	=-	=-	=-	=-	=-	=-
8r	.	.	.	16g/LL	.	16b-/LL	.	.	.	.	.	.	.	16b-\LL	no-	.	.	4r	.	.	.	.	.
.	.	.	.	16e-/	.	16g/	.	.	.	.	.	.	.	16g\JJ	.	.	.	.	.	.	.	.	.
8E-\	.	.	.	16g/	.	16b-/	.	.	.	.	.	.	.	16b-\	-mi-	.	.	.	.	.	.	.	.
.	.	.	.	16e-/JJ	.	16g/JJ	.	.	.	.	.	.	.	16g\	-ne	.	.	.	.	.	.	.	.
!	!	!	!	!	!	!	!	!	!	!	!	!	!	!	!	!	!	!LO:LB:g=original	!	!	!	!	!
=30	=30	=30	=30	=30	=30	=30	=30	=30	=30	=30	=30	=30	=30	=30	=30	=30	=30	=30	=30	=30	=30	=30	=30
!LO:TX:a:t=P:problem=mixedbeam	!	!	!	!	!	!	!	!	!	!	!	!	!	!	!	!	!	!	!	!	!	!	!
8B-\L	4	2ryy	.	16e-/LL	.	16g/LL	.	2r	.	2r	.	.	.	16g/	Do-	.	.	4r	.	.	.	2r	.
.	.	.	.	32d/L	.	32f/L	.	.	.	.	.	.	.	16f/	-mi-	.	.	.	.	.	.	.	.
.	.	.	.	32e-/J	.	32g/J	.	.	.	.	.	.	.	.	.	.	.	.	.	.	.	.	.
8BB-/J	3	.	.	16d/	.	16f/	.	.	.	.	.	.	.	8f/	-ni	.	.	.	.	.	.	.	.
.	.	.	.	16d/JJ	.	16f/JJ	.	.	.	.	.	.	.	.	.	.	.	.	.	.	.	.	.
!	!	!	!	!	!LO:DY:a:t=for	!	!	!	!	!	!	!	!	!	!	!	!	!	!	!	!	!	!
4BB-/	.	.	.	4d/	f	4d/ 4b-	.	.	.	.	.	.	.	4r	.	.	.	4f\	.	.	.	.	.
=31	=31	=31	=31	=31	=31	=31	=31	=31	=31	=31	=31	=31	=31	=31	=31	=31	=31	=31	=31	=31	=31	=31	=31
!	!	!	!	!	!	!	!LO:DY:a:t=for	!	!	!	!	!	!	!	!	!	!	!	!	!	!	!	!
.	.	.	.	.	.	16qqeen/LL	f	.	.	.	.	.	.	.	.	.	.	.	.	.	.	.	.
!	!	!	!	!	!	!	!	!	!	!	!	!LO:TX:a:i:t=Solo	!	!	!	!	!	!	!	!	!	!	!
.	.	.	.	.	.	16qqgg/JJ	.	.	.	.	.	.	.	.	.	.	.	.	.	.	.	.	.
8BB-/	.	2ryy	.	8r	.	2ff\	.	2r	.	2r	.	4.f\	Be-	0r	.	.	.	0r	.	0r	.	2r	.
!	!	!	!	!	!LO:DY:a:t=p.	!	!	!	!	!	!	!	!	!	!	!	!	!	!	!	!	!	!
8r	.	.	.	16b-\LL	p	.	.	.	.	.	.	.	.	.	.	.	.	.	.	.	.	.	.
.	.	.	.	16b-\JJ	.	.	.	.	.	.	.	.	.	.	.	.	.	.	.	.	.	.	.
4r	.	.	.	(16cc\LL	.	.	.	.	.	.	.	.	.	.	.	.	.	.	.	.	.	.	.
.	.	.	.	16b-\)	.	.	.	.	.	.	.	.	.	.	.	.	.	.	.	.	.	.	.
.	.	.	.	16b-|>\	.	.	.	.	.	.	.	8f\	-ne-	.	.	.	.	.	.	.	.	.	.
.	.	.	.	16b-|>\JJ	.	.	.	.	.	.	.	.	.	.	.	.	.	.	.	.	.	.	.
!LO:LB:g=original	!	!LO:LB:g=original	!	!	!	!	!	!	!	!	!	!	!	!	!	!	!	!	!	!	!	!	!
=32	=32	=32	=32	=32	=32	=32	=32	=32	=32	=32	=32	=32	=32	=32	=32	=32	=32	=32	=32	=32	=32	=32	=32
*	*	*	*	*	*	*	*	*	*	*	*	*2\right	*	*	*	*	*	*	*	*	*	*	*
8F\	.	2ryy	.	(16b-\LL	.	2ff\	.	2r	.	2r	.	2f\	-di-	.	.	.	.	.	.	.	.	2r	.
.	.	.	.	16an\)	.	.	.	.	.	.	.	.	.	.	.	.	.	.	.	.	.	.	.
8r	.	.	.	16a|>\	.	.	.	.	.	.	.	.	.	.	.	.	.	.	.	.	.	.	.
.	.	.	.	16a|>\JJ	.	.	.	.	.	.	.	.	.	.	.	.	.	.	.	.	.	.	.
4r	.	.	.	(16a\LL	.	.	.	.	.	.	.	.	.	.	.	.	.	.	.	.	.	.	.
.	.	.	.	16b-\)	.	.	.	.	.	.	.	.	.	.	.	.	.	.	.	.	.	.	.
.	.	.	.	16b-|>\	.	.	.	.	.	.	.	.	.	.	.	.	.	.	.	.	.	.	.
.	.	.	.	16cc|>\JJ	.	.	.	.	.	.	.	.	.	.	.	.	.	.	.	.	.	.	.
=33	=33	=33	=33	=33	=33	=33	=33	=33	=33	=33	=33	=33	=33	=33	=33	=33	=33	=33	=33	=33	=33	=33	=33
8BB-/L	.	2ryy	.	8b-\L	.	8ff\L	.	2r	.	2r	.	8f\	-ctus	.	.	1r	.	.	.	.	.	2r	.
8BB-/	.	.	.	8b-\	.	8b-\	.	.	.	.	.	8b-\	qui	.	.	.	.	.	.	.	.	.	.
8D/	6	.	.	8f\	.	8b-\	.	.	.	.	.	16an\LL	ve-	.	.	.	.	.	.	.	.	.	.
.	.	.	.	.	.	.	.	.	.	.	.	16b-\	.	.	.	.	.	.	.	.	.	.	.
8D/J	.	.	.	8f\J	.	8b-\J	.	.	.	.	.	16f\	.	.	.	.	.	.	.	.	.	.	.
.	.	.	.	.	.	.	.	.	.	.	.	16a-X\JJ	.	.	.	.	.	.	.	.	.	.	.
=34	=34	=34	=34	=34	=34	=34	=34	=34	=34	=34	=34	=34	=34	=34	=34	=34	=34	=34	=34	=34	=34	=34	=34
*2\right	*	*	*	*	*	*	*	*	*	*	*	*	*	*	*	*	*	*	*	*	*	*	*
*tremolo	*	*	*	*tremolo	*	*tremolo	*	*	*	*	*	*	*	*	*	*	*	*	*	*	*	*	*
8E-\L	.	2ryy	.	8g/L	.	8b-\L	.	2r	.	2r	.	16a-\LL	.	.	.	.	.	.	.	.	.	2r	.
.	.	.	.	.	.	.	.	.	.	.	.	16g\	.	.	.	.	.	.	.	.	.	.	.
8E-\	.	.	.	8g/	.	8b-\	.	.	.	.	.	16f\	.	.	.	.	.	.	.	.	.	.	.
.	.	.	.	.	.	.	.	.	.	.	.	16g\JJ	.	.	.	.	.	.	.	.	.	.	.
8E-\	.	.	.	8g/	.	8b-\	.	.	.	.	.	8g\	-nit	.	.	.	.	.	.	.	.	.	.
8E-\J	.	.	.	8g/J	.	8b-\J	.	.	.	.	.	8g\	in	.	.	.	.	.	.	.	.	.	.
*Xtremolo	*	*	*	*	*	*Xtremolo	*	*	*	*	*	*	*	*	*	*	*	*	*	*	*	*	*
=35	=35	=35	=35	=35	=35	=35	=35	=35	=35	=35	=35	=35	=35	=35	=35	=35	=35	=35	=35	=35	=35	=35	=35
8E-\L	.	2ryy	.	8g/L	.	8cc\L	.	2r	.	2r	.	16g\LL	no-	1r	.	2ryy	.	1r	.	1r	.	2r	.
.	.	.	.	.	.	.	.	.	.	.	.	16cc\JJ	.	.	.	.	.	.	.	.	.	.	.
8E-\	.	.	.	8g/	.	8cc\	.	.	.	.	.	16an\	-mi-	.	.	.	.	.	.	.	.	.	.
.	.	.	.	.	.	.	.	.	.	.	.	16cc\	-ne	.	.	.	.	.	.	.	.	.	.
!	!	!	!	!	!	!	!	!	!	!	!	!LO:LB:g=original	!	!	!	!	!	!	!	!	!	!	!
=-	=-	=-	=-	=-	=-	=-	=-	=-	=-	=-	=-	=-	=-	=-	=-	=-	=-	=-	=-	=-	=-	=-	=-
8E-\	.	.	.	8g/	.	8cc\	.	.	.	.	.	16b-\LL	Do-	.	.	.	.	.	.	.	.	.	.
.	.	.	.	.	.	.	.	.	.	.	.	16cc\JJ	.	.	.	.	.	.	.	.	.	.	.
8En\J	.	.	.	8g/J	.	8b-\J	.	.	.	.	.	16a\LL	-mi-	.	.	.	.	.	.	.	.	.	.
.	.	.	.	.	.	.	.	.	.	.	.	16b-X\JJ	.	.	.	.	.	.	.	.	.	.	.
*	*	*	*	*Xtremolo	*	*	*	*	*	*	*	*	*	*	*	*	*	*	*	*	*	*	*
!	!	!	!	!LO:LB:g=original	!	!	!	!	!	!	!	!	!	!	!	!	!	!	!	!	!	!	!
=36	=36	=36	=36	=36	=36	=36	=36	=36	=36	=36	=36	=36	=36	=36	=36	=36	=36	=36	=36	=36	=36	=36	=36
!LO:TX:a:t=P:problem=mixedbeam	!	!	!	!	!	!	!	!	!	!	!	!	!	!	!	!	!	!	!	!	!	!	!
.	.	.	.	.	.	8qqb-/	.	.	.	.	.	.	.	.	.	.	.	.	.	.	.	.	.
8F\L	4	4r	.	4c/	.	4an/	.	2r	.	2r	.	8an\	-ni	.	.	2ryy	.	.	.	.	.	2r	.
8FF/	.	.	.	.	.	.	.	.	.	.	.	8r	.	.	.	.	.	.	.	.	.	.	.
8F\J	5	16r	.	4r	.	4r	.	.	.	.	.	4r	.	.	.	.	.	.	.	.	.	.	.
!	!	!LO:N:acc=#	!	!	!	!	!	!	!	!	!	!	!	!	!	!	!	!	!	!	!	!	!
.	.	32bbnX\LLL	.	.	.	.	.	.	.	.	.	.	.	.	.	.	.	.	.	.	.	.	.
.	.	32ccc\JJJ	.	.	.	.	.	.	.	.	.	.	.	.	.	.	.	.	.	.	.	.	.
8r	.	32bb\LLL	.	.	.	.	.	.	.	.	.	.	.	.	.	.	.	.	.	.	.	.	.
.	.	32aa-\	.	.	.	.	.	.	.	.	.	.	.	.	.	.	.	.	.	.	.	.	.
.	.	32gg\	.	.	.	.	.	.	.	.	.	.	.	.	.	.	.	.	.	.	.	.	.
.	.	32ff\JJJ	.	.	.	.	.	.	.	.	.	.	.	.	.	.	.	.	.	.	.	.	.
!	!	!	!	!	!	!LO:LB:g=original	!	!	!	!	!	!	!	!	!	!	!	!	!	!	!	!	!
=37	=37	=37	=37	=37	=37	=37	=37	=37	=37	=37	=37	=37	=37	=37	=37	=37	=37	=37	=37	=37	=37	=37	=37
!	!	!	!	!	!	!	!LO:DY:a:t=p.	!	!	!	!	!	!	!	!	!	!	!	!LO:DY:a:t=p.	!	!	!	!
16AAn/LL	.	32ee-\LLL	.	8f/	.	8ee-\	p	4An\	Be-	4c\	Be-	4f\	Be-	4.ee-\	Be-	8f\	.	8f\	p	2ee-\	.	2ff\	.
.	.	32ff\	.	.	.	.	.	.	.	.	.	.	.	.	.	.	.	.	.	.	.	.	.
16F/	.	32ee-\	.	.	.	.	.	.	.	.	.	.	.	.	.	.	.	.	.	.	.	.	.
.	.	32dd\JJJ	.	.	.	.	.	.	.	.	.	.	.	.	.	.	.	.	.	.	.	.	.
16C/	.	32cc\LLL	.	4f/	.	4ee-\	.	.	.	.	.	.	.	.	.	8r	.	8r	.	.	.	.	.
.	.	32dd\	.	.	.	.	.	.	.	.	.	.	.	.	.	.	.	.	.	.	.	.	.
16F/JJ	.	32cc\	.	.	.	.	.	.	.	.	.	.	.	.	.	.	.	.	.	.	.	.	.
.	.	32b-\JJJ	.	.	.	.	.	.	.	.	.	.	.	.	.	.	.	.	.	.	.	.	.
!LO:LB:g=original	!	!LO:LB:g=original	!	!	!	!	!	!	!	!	!	!	!	!	!	!	!	!	!	!	!	!	!
=-	=-	=-	=-	=-	=-	=-	=-	=-	=-	=-	=-	=-	=-	=-	=-	=-	=-	=-	=-	=-	=-	=-	=-
16AA/LL	.	32an\LLL	.	.	.	.	.	4A\	-ne	4c\	-ne-	4f\	-ne-	.	.	4r	.	4r	.	.	.	.	.
.	.	32b-\	.	.	.	.	.	.	.	.	.	.	.	.	.	.	.	.	.	.	.	.	.
16F/	.	32a\	.	.	.	.	.	.	.	.	.	.	.	.	.	.	.	.	.	.	.	.	.
.	.	32g\JJJ	.	.	.	.	.	.	.	.	.	.	.	.	.	.	.	.	.	.	.	.	.
16C/	.	32f/LLL	.	8f/	.	8ee-\	.	.	.	.	.	.	.	8ee-\	-ne-	.	.	.	.	.	.	.	.
.	.	32g/	.	.	.	.	.	.	.	.	.	.	.	.	.	.	.	.	.	.	.	.	.
16F/JJ	.	32f/	.	.	.	.	.	.	.	.	.	.	.	.	.	.	.	.	.	.	.	.	.
.	.	32e-/JJJ	.	.	.	.	.	.	.	.	.	.	.	.	.	.	.	.	.	.	.	.	.
=38	=38	=38	=38	=38	=38	=38	=38	=38	=38	=38	=38	=38	=38	=38	=38	=38	=38	=38	=38	=38	=38	=38	=38
16BB-/LL	.	32d/LLL	.	8f/	.	2dd\	.	4B-\	di-	4B-\	-di-	4f\	-di-	4dd\	-di-	8B-/	.	8f\	.	2dd\	.	2ff\	.
.	.	32f/	.	.	.	.	.	.	.	.	.	.	.	.	.	.	.	.	.	.	.	.	.
16F/	.	32b-/	.	.	.	.	.	.	.	.	.	.	.	.	.	.	.	.	.	.	.	.	.
.	.	32f/JJJ	.	.	.	.	.	.	.	.	.	.	.	.	.	.	.	.	.	.	.	.	.
16D/	.	32dd\LLL	.	4f/	.	.	.	.	.	.	.	.	.	.	.	8r	.	8r	.	.	.	.	.
.	.	32b-\	.	.	.	.	.	.	.	.	.	.	.	.	.	.	.	.	.	.	.	.	.
16F/JJ	.	32ff\	.	.	.	.	.	.	.	.	.	.	.	.	.	.	.	.	.	.	.	.	.
.	.	32dd\JJJ	.	.	.	.	.	.	.	.	.	.	.	.	.	.	.	.	.	.	.	.	.
*rep	*	*	*	*	*	*	*	*	*	*	*	*	*	*	*	*	*	*	*	*	*	*	*
16BB-/LL	.	32bb-\LLL	.	.	.	.	.	8B-\	-ctus	8B-\	-ctus	8f\	-ctus	8dd\	-ctus	4r	.	4r	.	.	.	.	.
.	.	32ee-\	.	.	.	.	.	.	.	.	.	.	.	.	.	.	.	.	.	.	.	.	.
16F/	.	32dd\	.	.	.	.	.	.	.	.	.	.	.	.	.	.	.	.	.	.	.	.	.
.	.	32b-\JJJ	.	.	.	.	.	.	.	.	.	.	.	.	.	.	.	.	.	.	.	.	.
16D/	.	32ff\LLL	.	8f/	.	.	.	8B-\	qui	8B-\	qui	8f\	qui	8dd\	qui	.	.	.	.	.	.	.	.
.	.	32dd\	.	.	.	.	.	.	.	.	.	.	.	.	.	.	.	.	.	.	.	.	.
16F/JJ	.	32b-\	.	.	.	.	.	.	.	.	.	.	.	.	.	.	.	.	.	.	.	.	.
.	.	32f\JJJ	.	.	.	.	.	.	.	.	.	.	.	.	.	.	.	.	.	.	.	.	.
*Xrep	*	*	*	*	*	*	*	*	*	*	*	*	*	*	*	*	*	*	*	*	*	*	*
!	!	!	!	!	!	!	!	!	!	!	!	!	!	!	!	!	!	!	!	!LO:LB:g=original	!	!	!
=39	=39	=39	=39	=39	=39	=39	=39	=39	=39	=39	=39	=39	=39	=39	=39	=39	=39	=39	=39	=39	=39	=39	=39
*	*	*	*	*	*	*	*	*2\right	*	*2\right	*	*	*	*	*	*	*	*	*	*	*	*	*
16AAn/LL	.	32ee-\LLL	.	8f/	.	2ee-\	.	2An\	ve-	2c\	ve-	2f\	ve-	2ee-\	ve-	8f\	.	8f\	.	2ee-\	.	2ff\	.
.	.	32ff\	.	.	.	.	.	.	.	.	.	.	.	.	.	.	.	.	.	.	.	.	.
16F/	.	32ee-\	.	.	.	.	.	.	.	.	.	.	.	.	.	.	.	.	.	.	.	.	.
.	.	32dd\JJJ	.	.	.	.	.	.	.	.	.	.	.	.	.	.	.	.	.	.	.	.	.
16C/	.	32cc\LLL	.	4f/	.	.	.	.	.	.	.	.	.	.	.	8r	.	8r	.	.	.	.	.
.	.	32dd\	.	.	.	.	.	.	.	.	.	.	.	.	.	.	.	.	.	.	.	.	.
16F/JJ	.	32cc\	.	.	.	.	.	.	.	.	.	.	.	.	.	.	.	.	.	.	.	.	.
.	.	32b-\JJJ	.	.	.	.	.	.	.	.	.	.	.	.	.	.	.	.	.	.	.	.	.
*rep	*	*	*	*	*	*	*	*	*	*	*	*	*	*	*	*	*	*	*	*	*	*	*
16AA/LL	.	32an/LLL	.	.	.	.	.	.	.	.	.	.	.	.	.	4r	.	4r	.	.	.	.	.
.	.	32b-/	.	.	.	.	.	.	.	.	.	.	.	.	.	.	.	.	.	.	.	.	.
16F/	.	32a/	.	.	.	.	.	.	.	.	.	.	.	.	.	.	.	.	.	.	.	.	.
.	.	32g/JJJ	.	.	.	.	.	.	.	.	.	.	.	.	.	.	.	.	.	.	.	.	.
16C/	.	32f/LLL	.	8f/	.	.	.	.	.	.	.	.	.	.	.	.	.	.	.	.	.	.	.
.	.	32g/	.	.	.	.	.	.	.	.	.	.	.	.	.	.	.	.	.	.	.	.	.
16F/JJ	.	32f/	.	.	.	.	.	.	.	.	.	.	.	.	.	.	.	.	.	.	.	.	.
.	.	32e-/JJJ	.	.	.	.	.	.	.	.	.	.	.	.	.	.	.	.	.	.	.	.	.
*Xrep	*	*	*	*	*	*	*	*	*	*	*	*	*	*	*	*	*	*	*	*	*	*	*
!LO:LB:g=original	!	!LO:LB:g=original	!	!	!	!	!	!	!	!	!	!	!	!	!	!LO:LB:g=original	!	!	!	!	!	!	!
=40	=40	=40	=40	=40	=40	=40	=40	=40	=40	=40	=40	=40	=40	=40	=40	=40	=40	=40	=40	=40	=40	=40	=40
8BB-/	.	32d/LLL	.	8f/	.	8dd\	.	8B-\	-nit	8B-\	-nit	8f\	-nit	8dd\	-nit	8B-/	.	8f\	.	8dd\	.	8ff\	.
.	.	32f/	.	.	.	.	.	.	.	.	.	.	.	.	.	.	.	.	.	.	.	.	.
.	.	32g/	.	.	.	.	.	.	.	.	.	.	.	.	.	.	.	.	.	.	.	.	.
.	.	32a-/JJJ	.	.	.	.	.	.	.	.	.	.	.	.	.	.	.	.	.	.	.	.	.
8r	.	32b-\LLL	.	8r	.	8r	.	8r	.	8r	.	8r	.	8r	.	8r	.	8r	.	8r	.	8r	.
.	.	32cc\	.	.	.	.	.	.	.	.	.	.	.	.	.	.	.	.	.	.	.	.	.
.	.	32dd\	.	.	.	.	.	.	.	.	.	.	.	.	.	.	.	.	.	.	.	.	.
.	.	32ee-\JJJ	.	.	.	.	.	.	.	.	.	.	.	.	.	.	.	.	.	.	.	.	.
4r	.	32ff\LLL	.	4r	.	4r	.	4r	.	4r	.	4r	.	4r	.	4r	.	4r	.	4r	.	4r	.
.	.	32gg\	.	.	.	.	.	.	.	.	.	.	.	.	.	.	.	.	.	.	.	.	.
.	.	32aa-\	.	.	.	.	.	.	.	.	.	.	.	.	.	.	.	.	.	.	.	.	.
.	.	32bb-\JJJ	.	.	.	.	.	.	.	.	.	.	.	.	.	.	.	.	.	.	.	.	.
.	.	16ff\LL	.	.	.	.	.	.	.	.	.	.	.	.	.	.	.	.	.	.	.	.	.
.	.	16ff\JJ	.	.	.	.	.	.	.	.	.	.	.	.	.	.	.	.	.	.	.	.	.
=41	=41	=41	=41	=41	=41	=41	=41	=41	=41	=41	=41	=41	=41	=41	=41	=41	=41	=41	=41	=41	=41	=41	=41
*tremolo	*	*	*	*	*	*	*	*	*	*	*	*	*	*	*	*	*	*	*	*	*	*	*
!	!	!	!	!	!LO:DY:a:t=for:rj	!	!LO:DY:a:t=fp.	!	!	!	!	!	!	!	!	!	!	!	!	!	!	!	!
8D\L	6 5-	2ryy	.	8f/L	f	16a-X/KL	fp	2D\	in	2B-\	in	2f\	in	2a-X\	in	8B-/	.	8f\	.	2ff\	.	2aa-X\	.
.	.	.	.	.	.	8a-/	.	.	.	.	.	.	.	.	.	.	.	.	.	.	.	.	.
8D\	.	.	.	8f/	.	.	.	.	.	.	.	.	.	.	.	8r	.	8r	.	.	.	.	.
.	.	.	.	.	.	8a-/	.	.	.	.	.	.	.	.	.	.	.	.	.	.	.	.	.
8D\	.	.	.	8f/	.	.	.	.	.	.	.	.	.	.	.	4r	.	4r	.	.	.	.	.
.	.	.	.	.	.	8a-/	.	.	.	.	.	.	.	.	.	.	.	.	.	.	.	.	.
8D\J	.	.	.	8f/J	.	.	.	.	.	.	.	.	.	.	.	.	.	.	.	.	.	.	.
.	.	.	.	.	.	16a-/Jk	.	.	.	.	.	.	.	.	.	.	.	.	.	.	.	.	.
=42	=42	=42	=42	=42	=42	=42	=42	=42	=42	=42	=42	=42	=42	=42	=42	=42	=42	=42	=42	=42	=42	=42	=42
*	*	*	*	*tremolo	*	*	*	*	*	*	*	*	*	*	*	*	*	*	*	*	*	*	*
!	!	!	!	!	!LO:DY:a:t=fp.	!	!	!	!	!	!	!	!	!	!	!	!	!	!	!	!	!	!
8E-\L	.	2ryy	.	8B-/L	fp	16g/KL	.	4E-\	no-	4B-\	no-	4e-\	no-	4g\	no-	8e-\	.	8g\	.	2ee-\	.	2gg\	.
.	.	.	.	.	.	8g/	.	.	.	.	.	.	.	.	.	.	.	.	.	.	.	.	.
8E-\	.	.	.	8B-/	.	.	.	.	.	.	.	.	.	.	.	8r	.	8r	.	.	.	.	.
.	.	.	.	.	.	8g/	.	.	.	.	.	.	.	.	.	.	.	.	.	.	.	.	.
8E-\	.	.	.	8B-/	.	.	.	8E-\	-mi-	8B-\	-mi-	8e-\	-mi-	8g\	-mi-	4r	.	4r	.	.	.	.	.
.	.	.	.	.	.	8g/	.	.	.	.	.	.	.	.	.	.	.	.	.	.	.	.	.
8E-\J	.	.	.	8B-/J	.	.	.	8E-\	-ne	8B-\	-ne	8e-\	-ne	8g\	-ne	.	.	.	.	.	.	.	.
.	.	.	.	.	.	16g/Jk	.	.	.	.	.	.	.	.	.	.	.	.	.	.	.	.	.
!	!	!	!	!	!	!	!	!LO:LB:g=original	!	!	!	!	!	!	!	!	!	!	!	!	!	!	!
=43	=43	=43	=43	=43	=43	=43	=43	=43	=43	=43	=43	=43	=43	=43	=43	=43	=43	=43	=43	=43	=43	=43	=43
!	!	!	!	!	!LO:DY:a:t=fp.	!LO:TX:a:t=P:problem=mixedbeam	!LO:DY:a:t=fp.	!	!	!	!	!	!	!	!	!	!	!	!	!	!	!	!
8Cn/L	.	2ryy	.	8g/L	fp	16g/KL	fp	4.Bn\	Do-	4.d\	Do-	4.g\	Do-	4.ff\	Do-	8G/	.	8g\	.	2dd\	.	2ff\	.
.	.	.	.	.	.	8ff\	.	.	.	.	.	.	.	.	.	.	.	.	.	.	.	.	.
8C/	.	.	.	8g/	.	.	.	.	.	.	.	.	.	.	.	8r	.	8r	.	.	.	.	.
.	.	.	.	.	.	8ff\	.	.	.	.	.	.	.	.	.	.	.	.	.	.	.	.	.
8C/	.	.	.	8g/	.	.	.	.	.	.	.	.	.	.	.	4r	.	4r	.	.	.	.	.
.	.	.	.	.	.	8ff\	.	.	.	.	.	.	.	.	.	.	.	.	.	.	.	.	.
8C/J	.	.	.	8g/J	.	.	.	8B\	-mi-	8d\	-mi-	8g\	-mi-	8ff\	-mi-	.	.	.	.	.	.	.	.
.	.	.	.	.	.	16ff\Jk	.	.	.	.	.	.	.	.	.	.	.	.	.	.	.	.	.
!	!	!	!	!	!	!	!	!	!	!LO:LB:g=original	!	!	!	!	!	!	!	!	!	!	!	!	!
=44	=44	=44	=44	=44	=44	=44	=44	=44	=44	=44	=44	=44	=44	=44	=44	=44	=44	=44	=44	=44	=44	=44	=44
!	!	!	!	!	!LO:DY:a:t=fp	!	!LO:DY:a:t=fp.	!	!	!	!	!	!	!	!	!	!	!	!	!	!	!	!
8C/L	-	2ryy	.	8g/L	fp	16ee-\KL	fp	4c\	-ni	4d\	-ni	4g\	-ni	4ee-\	-ni	8G/	.	8g\	.	2cc\	.	2ee-\	.
.	.	.	.	.	.	8ee-\	.	.	.	.	.	.	.	.	.	.	.	.	.	.	.	.	.
8C/	.	.	.	8g/	.	.	.	.	.	.	.	.	.	.	.	8r	.	8r	.	.	.	.	.
.	.	.	.	.	.	8ee-\	.	.	.	.	.	.	.	.	.	.	.	.	.	.	.	.	.
8C/	.	.	.	8g/	.	.	.	4c\	qui	4c\	qui	4g\	qui	4ee-\	qui	4r	.	4r	.	.	.	.	.
.	.	.	.	.	.	8ee-\	.	.	.	.	.	.	.	.	.	.	.	.	.	.	.	.	.
8C/J	.	.	.	8g/J	.	.	.	.	.	.	.	.	.	.	.	.	.	.	.	.	.	.	.
!	!	!	!	!	!	!LO:TX:b:t=V&colon;S&colon;	!	!	!	!	!	!	!	!	!	!	!	!	!	!	!	!	!
.	.	.	.	.	.	16ee-\Jk	.	.	.	.	.	.	.	.	.	.	.	.	.	.	.	.	.
!	!	!	!	!	!	!LO:PB:g=original	!	!	!	!	!	!LO:LB:g=original	!	!LO:LB:g=original	!	!	!	!	!	!	!	!	!
=45	=45	=45	=45	=45	=45	=45	=45	=45	=45	=45	=45	=45	=45	=45	=45	=45	=45	=45	=45	=45	=45	=45	=45
!	!	!	!	!	!LO:DY:a:t=fp	!LO:TX:a:t=P:problem=mixedbeam	!	!	!	!	!	!	!	!	!	!	!	!	!	!	!	!	!
8An\L	6 5	2ryy	.	8f/L	fp	16f/KL	.	2An\	ve-	2c\	ve-	2f\	ve-	2ee-\	ve-	8f\	.	8f\	.	2cc\	.	2ee-\	.
.	.	.	.	.	.	8ee-\	.	.	.	.	.	.	.	.	.	.	.	.	.	.	.	.	.
8A\	.	.	.	8f/	.	.	.	.	.	.	.	.	.	.	.	8r	.	8r	.	.	.	.	.
.	.	.	.	.	.	8ee-\	.	.	.	.	.	.	.	.	.	.	.	.	.	.	.	.	.
8A\	.	.	.	8f/	.	.	.	.	.	.	.	.	.	.	.	4r	.	4r	.	.	.	.	.
.	.	.	.	.	.	8ee-\	.	.	.	.	.	.	.	.	.	.	.	.	.	.	.	.	.
8A\J	.	.	.	8f/J	.	.	.	.	.	.	.	.	.	.	.	.	.	.	.	.	.	.	.
.	.	.	.	.	.	16ee-\Jk	.	.	.	.	.	.	.	.	.	.	.	.	.	.	.	.	.
!	!	!	!	!	!	!	!	!	!	!	!	!	!	!	!	!	!	!	!	!	!	!LO:LB:g=original	!
=46	=46	=46	=46	=46	=46	=46	=46	=46	=46	=46	=46	=46	=46	=46	=46	=46	=46	=46	=46	=46	=46	=46	=46
!	!	!	!	!	!LO:DY:a:t=fp.	!	!	!	!	!	!	!	!	!	!	!	!	!	!	!	!	!	!
8B-\L	_	2ryy	.	8f/L	fp	16dd\KL	.	4B-\	-nit	4B-\	-nit	4f\	-nit	4dd\	-nit	8B-/	.	4f\	.	2b-\	.	2dd\	.
.	.	.	.	.	.	8dd\	.	.	.	.	.	.	.	.	.	.	.	.	.	.	.	.	.
8B-\	x	.	.	8f/	.	.	.	.	.	.	.	.	.	.	.	8r	.	.	.	.	.	.	.
.	.	.	.	.	.	8dd\	.	.	.	.	.	.	.	.	.	.	.	.	.	.	.	.	.
8B-\	.	.	.	8f/	.	.	.	4B-\	in	4B-\	in	4f\	in	4dd\	in	4r	.	4r	.	.	.	.	.
.	.	.	.	.	.	8dd\	.	.	.	.	.	.	.	.	.	.	.	.	.	.	.	.	.
8B-\J	.	.	.	8f/J	.	.	.	.	.	.	.	.	.	.	.	.	.	.	.	.	.	.	.
.	.	.	.	.	.	16dd\Jk	.	.	.	.	.	.	.	.	.	.	.	.	.	.	.	.	.
*Xtremolo	*	*	*	*	*	*	*	*	*	*	*	*	*	*	*	*	*	*	*	*	*	*	*
!LO:LB:g=original	!	!LO:LB:g=original	!	!	!	!	!	!	!	!	!	!	!	!	!	!	!	!	!	!	!	!	!
=47	=47	=47	=47	=47	=47	=47	=47	=47	=47	=47	=47	=47	=47	=47	=47	=47	=47	=47	=47	=47	=47	=47	=47
!	!	!	!	!	!LO:DY:a:t=fp.	!	!LO:DY:a:t=fp.	!	!	!	!	!	!	!	!	!	!	!	!	!	!	!	!
8E-\L	6 5	2ryy	.	8f/L	fp	16cc\KL	fp	4E-\	no-	4B-\	No-	4g\	no-	4cc\	no-	2r	.	2r	.	2b-\	.	2dd\	.
.	.	.	.	.	.	8cc\	.	.	.	.	.	.	.	.	.	.	.	.	.	.	.	.	.
8E-\	.	.	.	8f/	.	.	.	.	.	.	.	.	.	.	.	.	.	.	.	.	.	.	.
.	.	.	.	.	.	8cc\	.	.	.	.	.	.	.	.	.	.	.	.	.	.	.	.	.
8En\	_	.	.	8f/	.	.	.	8En\	-mi-	8B-\	-mi-	8g\	-mi-	8cc\	-mi-	.	.	.	.	.	.	.	.
.	.	.	.	.	.	8cc\	.	.	.	.	.	.	.	.	.	.	.	.	.	.	.	.	.
8E\J	x	.	.	8f/J	.	.	.	8E\	-ne	8B-\	-ne	8g\	-ne	8cc\	-ne	.	.	.	.	.	.	.	.
.	.	.	.	.	.	16cc\Jk	.	.	.	.	.	.	.	.	.	.	.	.	.	.	.	.	.
*	*	*	*	*Xtremolo	*	*	*	*	*	*	*	*	*	*	*	*	*	*	*	*	*	*	*
!	!	!	!	!LO:LB:g=original	!	!	!	!	!	!	!	!	!	!	!	!	!	!	!	!	!	!	!
=48	=48	=48	=48	=48	=48	=48	=48	=48	=48	=48	=48	=48	=48	=48	=48	=48	=48	=48	=48	=48	=48	=48	=48
*tremolo	*	*	*	*	*	*	*	*	*	*	*	*	*	*	*	*	*	*2\right	*	*	*	*	*
!	!	!	!	!	!	!	!	!	!	!	!	!	!	!	!	!	!	!	!LO:DY:a	!	!	!	!
8F\L	6 4	2ryy	.	16d/LL	.	16dd\LL	.	2F\	Do-	2B-\	Do-	2f\	Do-	2dd\	Do-	2B-/	.	2f\	p	2b-\	.	2dd\	.
.	.	.	.	16f/	.	16ff\JJ	.	.	.	.	.	.	.	.	.	.	.	.	.	.	.	.	.
8F\	.	.	.	16d/	.	8r	.	.	.	.	.	.	.	.	.	.	.	.	.	.	.	.	.
.	.	.	.	16f/JJ	.	.	.	.	.	.	.	.	.	.	.	.	.	.	.	.	.	.	.
*	*	*	*	*rep	*	*	*	*	*	*	*	*	*	*	*	*	*	*	*	*	*	*	*
8F\	.	.	.	16d/LL	.	8ff\L	.	.	.	.	.	.	.	.	.	.	.	.	.	.	.	.	.
.	.	.	.	16f/	.	.	.	.	.	.	.	.	.	.	.	.	.	.	.	.	.	.	.
8F\J	.	.	.	16d/	.	16dd\L	.	.	.	.	.	.	.	.	.	.	.	.	.	.	.	.	.
.	.	.	.	16f/JJ	.	16b-\JJ	.	.	.	.	.	.	.	.	.	.	.	.	.	.	.	.	.
*	*	*	*	*Xrep	*	*	*	*	*	*	*	*	*	*	*	*	*	*	*	*	*	*	*
!	!	!	!	!	!	!	!	!	!	!	!	!	!	!	!	!	!	!LO:LB:g=original	!	!	!	!	!
=49	=49	=49	=49	=49	=49	=49	=49	=49	=49	=49	=49	=49	=49	=49	=49	=49	=49	=49	=49	=49	=49	=49	=49
*	*	*	*	*	*	*	*	*	*	*	*	*	*	*	*	*2\right	*	*	*	*	*	*	*
8F\L	5 3	2ryy	.	16e-/LL	.	8an\L	.	4.F\	.	4.c\	-mi-	4.f\	.	4.ee-\	.	2f\	.	2f\	.	2cc\	.	2ee-\	.
.	.	.	.	16f/	.	.	.	.	.	.	.	.	.	.	.	.	.	.	.	.	.	.	.
8F\	.	.	.	16e-/	.	16cc\Jk	.	.	.	.	.	.	.	.	.	.	.	.	.	.	.	.	.
.	.	.	.	16f/JJ	.	16r	.	.	.	.	.	.	.	.	.	.	.	.	.	.	.	.	.
*	*	*	*	*rep	*	*	*	*	*	*	*	*	*	*	*	*	*	*	*	*	*	*	*
8F\	.	.	.	16e-/LL	.	8ee-\L	.	.	.	.	.	.	.	.	.	.	.	.	.	.	.	.	.
.	.	.	.	16f/	.	.	.	.	.	.	.	.	.	.	.	.	.	.	.	.	.	.	.
8F\J	.	.	.	16e-/	.	16cc\L	.	8F\	-mi-	8c\	.	8f\	-mi-	8ee-\	-mi-	.	.	.	.	.	.	.	.
.	.	.	.	16f/JJ	.	16an\JJ	.	.	.	.	.	.	.	.	.	.	.	.	.	.	.	.	.
*Xtremolo	*	*	*	*Xrep	*	*	*	*	*	*	*	*	*	*	*	*	*	*	*	*	*	*	*
=50	=50	=50	=50	=50	=50	=50	=50	=50	=50	=50	=50	=50	=50	=50	=50	=50	=50	=50	=50	=50	=50	=50	=50
!	!	!	!	!	!	!	!LO:DY:a:t=for	!	!	!	!	!	!	!	!	!	!	!	!	!	!	!	!
8BB-/	.	2ryy	.	8d/	.	8b-\	f	8BB-/	-ni	4B-\	-ni	8f\	-ni	8dd\	-ni	8B-/	.	8f\	.	8b-\	.	8dd\	.
8r	.	.	.	8r	.	16r	.	8r	.	.	.	8r	.	8r	.	8r	.	8r	.	8r	.	8r	.
.	.	.	.	.	.	16ff\	.	.	.	.	.	.	.	.	.	.	.	.	.	.	.	.	.
8r	.	.	.	8r	.	16ff\LL	.	4r	.	4r	.	4r	.	4r	.	4r	.	4r	.	4r	.	4r	.
.	.	.	.	.	.	16dd\	.	.	.	.	.	.	.	.	.	.	.	.	.	.	.	.	.
8B-\	.	.	.	8d/	.	16dd\	.	.	.	.	.	.	.	.	.	.	.	.	.	.	.	.	.
.	.	.	.	.	.	16b-\JJ	.	.	.	.	.	.	.	.	.	.	.	.	.	.	.	.	.
!	!	!	!	!	!	!LO:LB:g=original	!	!	!	!	!	!	!	!	!	!	!	!	!	!	!	!	!
=51	=51	=51	=51	=51	=51	=51	=51	=51	=51	=51	=51	=51	=51	=51	=51	=51	=51	=51	=51	=51	=51	=51	=51
!	!	!	!	!	!LO:DY:a:t=f.:rj	!	!	!LO:TX:a:t=27	!	!LO:TX:a:t=27.	!	!	!	!	!	!	!	!	!	!	!	!	!
8F\	.	2ryy	.	8e-/	f	32a-\LLL	.	2r	.	2r	.	0r	.	0r	.	2r	.	2r	.	2r	.	2r	.
.	.	.	.	.	.	32b-\	.	.	.	.	.	.	.	.	.	.	.	.	.	.	.	.	.
.	.	.	.	.	.	32a-\	.	.	.	.	.	.	.	.	.	.	.	.	.	.	.	.	.
.	.	.	.	.	.	32b-\JJJ	.	.	.	.	.	.	.	.	.	.	.	.	.	.	.	.	.
8r	.	.	.	8r	.	32cc\LLL	.	.	.	.	.	.	.	.	.	.	.	.	.	.	.	.	.
.	.	.	.	.	.	32dd\	.	.	.	.	.	.	.	.	.	.	.	.	.	.	.	.	.
.	.	.	.	.	.	32cc\	.	.	.	.	.	.	.	.	.	.	.	.	.	.	.	.	.
.	.	.	.	.	.	32dd\JJJ	.	.	.	.	.	.	.	.	.	.	.	.	.	.	.	.	.
!	!	!	!	!	!	!LO:TX:a:t=P:problem=mixedbeam	!	!	!	!	!	!	!	!	!	!	!	!	!	!	!	!	!
8r	.	.	.	4f/	.	16ee-\LL	.	.	.	.	.	.	.	.	.	.	.	.	.	.	.	.	.
.	.	.	.	.	.	16f/	.	.	.	.	.	.	.	.	.	.	.	.	.	.	.	.	.
8An\	.	.	.	.	.	16ee-\	.	.	.	.	.	.	.	.	.	.	.	.	.	.	.	.	.
.	.	.	.	.	.	16ee-\JJ	.	.	.	.	.	.	.	.	.	.	.	.	.	.	.	.	.
=52	=52	=52	=52	=52	=52	=52	=52	=52	=52	=52	=52	=52	=52	=52	=52	=52	=52	=52	=52	=52	=52	=52	=52
!	!	!	!	!	!	!	!	!	!	!	!	!	!	!	!	!	!	!	!LO:DY:a:t=f.	!	!	!	!
8B-\L	.	2ryy	.	8f/L	.	8.dd\L	.	2r	.	2r	.	.	.	.	.	4B-/	.	4f\	f	2b-\	.	4dd\	.
8D\	.	.	.	8b-/	.	.	.	.	.	.	.	.	.	.	.	.	.	.	.	.	.	.	.
.	.	.	.	.	.	16bb-\Jk	.	.	.	.	.	.	.	.	.	.	.	.	.	.	.	.	.
.	.	.	.	.	.	8qqaa-/	.	.	.	.	.	.	.	.	.	.	.	.	.	.	.	.	.
8E-\	.	.	.	8b-/	.	8gg\L	.	.	.	.	.	.	.	.	.	4e-\	.	4g\	.	.	.	4ee-\	.
8E-\J	.	.	.	8b-/J	.	16ff\L	.	.	.	.	.	.	.	.	.	.	.	.	.	.	.	.	.
.	.	.	.	.	.	16ee-\JJ	.	.	.	.	.	.	.	.	.	.	.	.	.	.	.	.	.
=53	=53	=53	=53	=53	=53	=53	=53	=53	=53	=53	=53	=53	=53	=53	=53	=53	=53	=53	=53	=53	=53	=53	=53
*tremolo	*	*	*	*	*	*	*	*	*	*	*	*	*	*	*	*	*	*	*	*	*	*	*
8F\L	.	2ryy	.	8b-/L	.	16dd\LL	.	2r	.	2r	.	.	.	.	.	2f\	.	2f\	.	4b-\	.	4dd\	.
.	.	.	.	.	.	16ff\JJ	.	.	.	.	.	.	.	.	.	.	.	.	.	.	.	.	.
8F\	.	.	.	8b-/	.	32ee-\LLL	.	.	.	.	.	.	.	.	.	.	.	.	.	.	.	.	.
.	.	.	.	.	.	32dd\	.	.	.	.	.	.	.	.	.	.	.	.	.	.	.	.	.
.	.	.	.	.	.	32cc\	.	.	.	.	.	.	.	.	.	.	.	.	.	.	.	.	.
.	.	.	.	.	.	32b-\JJJ	.	.	.	.	.	.	.	.	.	.	.	.	.	.	.	.	.
8F\	.	.	.	8b-/	.	4ccT\	.	.	.	.	.	.	.	.	.	.	.	.	.	4a\	.	4cc\	.
8F\J	.	.	.	8an/J	.	.	.	.	.	.	.	.	.	.	.	.	.	.	.	.	.	.	.
*Xtremolo	*	*	*	*	*	*	*	*	*	*	*	*	*	*	*	*	*	*	*	*	*	*	*
!	!	!	!	!	!	!	!	!	!	!	!	!	!	!	!	!	!	!	!	!LO:LB:g=original	!	!	!
=54	=54	=54	=54	=54	=54	=54	=54	=54	=54	=54	=54	=54	=54	=54	=54	=54	=54	=54	=54	=54	=54	=54	=54
!LO:TX:a:t=P:problem=mixedbeam	!	!	!	!	!	!	!	!	!	!	!	!	!	!	!	!	!	!	!	!	!	!	!
8BB-/L	.	2ryy	.	16b-\KL	.	8.dd\L	.	2r	.	2r	.	.	.	.	.	8B-/	.	8f\	.	8b-\	.	8dd\	.
.	.	.	.	8b-\	.	.	.	.	.	.	.	.	.	.	.	.	.	.	.	.	.	.	.
8B-\	.	.	.	.	.	.	.	.	.	.	.	.	.	.	.	8r	.	8r	.	8r	.	8r	.
.	.	.	.	8b-\	.	16ff\Jk	.	.	.	.	.	.	.	.	.	.	.	.	.	.	.	.	.
8G\	6	.	.	.	.	(16ff\LL	.	.	.	.	.	.	.	.	.	4r	.	4r	.	4r	.	4r	.
.	.	.	.	8b-\	.	16ee-\)	.	.	.	.	.	.	.	.	.	.	.	.	.	.	.	.	.
8E-\J	.	.	.	.	.	(16dd\	.	.	.	.	.	.	.	.	.	.	.	.	.	.	.	.	.
.	.	.	.	16b-\Jk	.	16cc\JJ)	.	.	.	.	.	.	.	.	.	.	.	.	.	.	.	.	.
!LO:LB:g=original	!	!LO:LB:g=original	!	!	!	!	!	!	!	!	!	!	!	!	!	!	!	!	!	!	!	!	!
=55	=55	=55	=55	=55	=55	=55	=55	=55	=55	=55	=55	=55	=55	=55	=55	=55	=55	=55	=55	=55	=55	=55	=55
*tremolo	*	*	*	*	*	*	*	*	*	*	*	*	*	*	*	*	*	*	*	*	*	*	*
8F\L	.	2ryy	.	8d/L	.	8b-\L	.	2r	.	2r	.	0r	.	0r	.	8f\L	.	8f\L	.	4b-\	.	4dd\	.
8F\	.	.	.	8d/	.	32b-\LL	.	.	.	.	.	.	.	.	.	8f\	.	8f\	.	.	.	.	.
.	.	.	.	.	.	32cc\	.	.	.	.	.	.	.	.	.	.	.	.	.	.	.	.	.
.	.	.	.	.	.	32b-\	.	.	.	.	.	.	.	.	.	.	.	.	.	.	.	.	.
.	.	.	.	.	.	32cc\JJJ	.	.	.	.	.	.	.	.	.	.	.	.	.	.	.	.	.
8F\	.	.	.	8e-/	.	4cc\	.	.	.	.	.	.	.	.	.	8f\	.	8f\	.	4a\	.	8cc\	.
8F\J	.	.	.	8e-/J	.	.	.	.	.	.	.	.	.	.	.	8f\J	.	8f\J	.	.	.	8r	.
*Xtremolo	*	*	*	*	*	*	*	*	*	*	*	*	*	*	*	*	*	*	*	*	*	*	*
!	!	!	!	!LO:LB:g=original	!	!	!	!	!	!	!	!	!	!	!	!LO:LB:g=original	!	!	!	!	!	!	!
=56	=56	=56	=56	=56	=56	=56	=56	=56	=56	=56	=56	=56	=56	=56	=56	=56	=56	=56	=56	=56	=56	=56	=56
8BB-/	.	2ryy	.	8d/	.	8b-\	.	2r	.	2r	.	.	.	.	.	8B-/	.	8f\	.	(16b-\LL	.	16dd\LL	.
!	!	!	!	!	!	!	!	!	!	!	!	!	!	!	!	!	!	!	!	!	!	!LO:SIC:v:s=16dd\	!
.	.	.	.	.	.	.	.	.	.	.	.	.	.	.	.	.	.	.	.	16b-\)	.	16cc\	.
!	!	!	!	!	!	!	!	!	!	!	!	!	!	!	!	!	!	!	!	!	!	!LO:SIC:v:s=16ee-\	!
8r	.	.	.	8r	.	8r	.	.	.	.	.	.	.	.	.	8r	.	8r	.	(16cc\	.	16dd\	.
.	.	.	.	.	.	.	.	.	.	.	.	.	.	.	.	.	.	.	.	16dd\JJ)	.	16ff\JJ	.
8r	.	.	.	8r	.	8r	.	.	.	.	.	.	.	.	.	8r	.	8r	.	(16dd\LL	.	16ff\LL	.
.	.	.	.	.	.	.	.	.	.	.	.	.	.	.	.	.	.	.	.	16cc\)	.	16ee-\	.
8F\	.	.	.	8e-/	.	8an/	.	.	.	.	.	.	.	.	.	8f\	.	8f\	.	(16a\	.	16cc\	.
.	.	.	.	.	.	.	.	.	.	.	.	.	.	.	.	.	.	.	.	16cc\JJ)	.	16ee-\JJ	.
!	!	!	!	!	!	!LO:LB:g=original	!	!	!	!	!	!	!	!	!	!	!	!	!	!	!	!	!
=57	=57	=57	=57	=57	=57	=57	=57	=57	=57	=57	=57	=57	=57	=57	=57	=57	=57	=57	=57	=57	=57	=57	=57
8B-\	.	2ryy	.	8d/	.	8b-/	.	2r	.	2r	.	.	.	.	.	8B-/	.	8f\	.	(16b-\LL	.	16dd\LL	.
.	.	.	.	.	.	.	.	.	.	.	.	.	.	.	.	.	.	.	.	16b-\)	.	16dd\	.
8r	.	.	.	8r	.	8r	.	.	.	.	.	.	.	.	.	8r	.	8r	.	(16cc\	.	16ee-\	.
.	.	.	.	.	.	.	.	.	.	.	.	.	.	.	.	.	.	.	.	16dd\JJ)	.	16ff\JJ	.
8r	.	.	.	8r	.	8r	.	.	.	.	.	.	.	.	.	8r	.	8r	.	(16dd\LL	.	16ff\LL	.
.	.	.	.	.	.	.	.	.	.	.	.	.	.	.	.	.	.	.	.	16cc\)	.	16ee-\	.
!	!	!	!	!	!	!LO:SIC:v:s=8an/	!	!	!	!	!	!	!	!	!	!	!	!	!	!	!	!	!
8F\	.	.	.	8e-/	.	8a-/	.	.	.	.	.	.	.	.	.	8f\	.	8f\	.	(16a\	.	16cc\	.
.	.	.	.	.	.	.	.	.	.	.	.	.	.	.	.	.	.	.	.	16cc\JJ)	.	16ee-\JJ	.
!	!	!	!	!	!	!	!	!	!	!	!	!	!	!	!	!	!	!	!	!	!	!LO:LB:g=original	!
=58	=58	=58	=58	=58	=58	=58	=58	=58	=58	=58	=58	=58	=58	=58	=58	=58	=58	=58	=58	=58	=58	=58	=58
!	!	!	!	!	!	!LO:SIC:v:s=4an/	!	!	!	!	!	!	!	!	!	!	!	!	!	!	!	!	!
8B-\L	.	2ryy	.	4e-/	.	4a-/	.	2r	.	2r	.	.	.	.	.	4f\	.	4f\	.	4cc\	.	4ee-\	.
8F\	.	.	.	.	.	.	.	.	.	.	.	.	.	.	.	.	.	.	.	.	.	.	.
8BB-\J	.	.	.	8d/	.	8b-/	.	.	.	.	.	.	.	.	.	8B-/	.	8f\	.	8b-\	.	8dd\	.
8r	.	.	.	8r	.	8r	.	.	.	.	.	.	.	.	.	8r	.	8r	.	8r	.	8r	.
=59	=59	=59	=59	=59	=59	=59	=59	=59	=59	=59	=59	=59	=59	=59	=59	=59	=59	=59	=59	=59	=59	=59	=59
!	!	!	!	!	!	!	!LO:DY:a:t=p.	!	!	!	!	!	!	!	!	!	!	!	!	!	!	!	!
.	.	.	.	.	.	16qqee-/LL	p	.	.	.	.	.	.	.	.	.	.	.	.	.	.	.	.
!	!	!	!	!	!	!	!	!	!	!	!	!LO:TX:a:t=Solo	!	!	!	!	!	!	!	!	!	!	!
.	.	.	.	.	.	16qqgg/JJ	.	.	.	.	.	.	.	.	.	.	.	.	.	.	.	.	.
8BB-/	.	2ryy	.	8r	.	2ff\	.	2r	.	2r	.	4.f\	Be-	0r	.	0r	.	0r	.	0r	.	0r	.
!	!	!	!	!	!LO:DY:a:t=p.	!	!	!	!	!	!	!	!	!	!	!	!	!	!	!	!	!	!
8r	.	.	.	16d/LL	p	.	.	.	.	.	.	.	.	.	.	.	.	.	.	.	.	.	.
.	.	.	.	16d/JJ	.	.	.	.	.	.	.	.	.	.	.	.	.	.	.	.	.	.	.
4r	.	.	.	(16e-/LL	.	.	.	.	.	.	.	.	.	.	.	.	.	.	.	.	.	.	.
.	.	.	.	16d/)	.	.	.	.	.	.	.	.	.	.	.	.	.	.	.	.	.	.	.
.	.	.	.	(16d/	.	.	.	.	.	.	.	8f\	-ne	.	.	.	.	.	.	.	.	.	.
.	.	.	.	16b-/JJ)	.	.	.	.	.	.	.	.	.	.	.	.	.	.	.	.	.	.	.
=60	=60	=60	=60	=60	=60	=60	=60	=60	=60	=60	=60	=60	=60	=60	=60	=60	=60	=60	=60	=60	=60	=60	=60
8F\	.	2ryy	.	(16b-\LL	.	2ff\	.	2r	.	2r	.	2f\	di-	.	.	.	.	.	.	.	.	.	.
.	.	.	.	16an\)	.	.	.	.	.	.	.	.	.	.	.	.	.	.	.	.	.	.	.
8r	.	.	.	16a|>\	.	.	.	.	.	.	.	.	.	.	.	.	.	.	.	.	.	.	.
.	.	.	.	16a|>\JJ	.	.	.	.	.	.	.	.	.	.	.	.	.	.	.	.	.	.	.
4r	.	.	.	(16a\LL	.	.	.	.	.	.	.	.	.	.	.	.	.	.	.	.	.	.	.
.	.	.	.	16b-\)	.	.	.	.	.	.	.	.	.	.	.	.	.	.	.	.	.	.	.
.	.	.	.	(16b-\	.	.	.	.	.	.	.	.	.	.	.	.	.	.	.	.	.	.	.
.	.	.	.	16cc\JJ)	.	.	.	.	.	.	.	.	.	.	.	.	.	.	.	.	.	.	.
=61	=61	=61	=61	=61	=61	=61	=61	=61	=61	=61	=61	=61	=61	=61	=61	=61	=61	=61	=61	=61	=61	=61	=61
8BB-/	.	2ryy	.	8b-\	.	8ff\L	.	2r	.	2r	.	8f\L	-ctus	.	.	.	.	.	.	.	.	.	.
8r	.	.	.	8r	.	8bb-\	.	.	.	.	.	8b-\J	.	.	.	.	.	.	.	.	.	.	.
8r	.	.	.	8r	.	8aan\	.	.	.	.	.	8an\	qui	.	.	.	.	.	.	.	.	.	.
8B-\	6	.	.	8dd\	.	8gg\J	.	.	.	.	.	8g\	.	.	.	.	.	.	.	.	.	.	.
!	!	!	!	!	!	!	!	!	!	!	!	!LO:LB:g=original	!	!	!	!	!	!	!	!	!	!	!
=62	=62	=62	=62	=62	=62	=62	=62	=62	=62	=62	=62	=62	=62	=62	=62	=62	=62	=62	=62	=62	=62	=62	=62
8An\L	6	2ryy	.	8cc\L	.	8.ff\L	.	2r	.	2r	.	8.f\L	ve-	.	.	.	.	.	.	.	.	.	.
8F\	.	.	.	8an\	.	.	.	.	.	.	.	.	.	.	.	.	.	.	.	.	.	.	.
.	.	.	.	.	.	16ee-\Jk	.	.	.	.	.	16e-\Jk	.	.	.	.	.	.	.	.	.	.	.
8B-\	7	.	.	8b-\	.	8dd\L	.	.	.	.	.	8d\	-nit	.	.	.	.	.	.	.	.	.	.
8D\J	.	.	.	8f\J	.	8b-\J	.	.	.	.	.	8f\	in	.	.	.	.	.	.	.	.	.	.
!LO:LB:g=original	!	!LO:LB:g=original	!	!	!	!	!	!	!	!	!	!	!	!	!	!	!	!	!	!	!	!	!
=63	=63	=63	=63	=63	=63	=63	=63	=63	=63	=63	=63	=63	=63	=63	=63	=63	=63	=63	=63	=63	=63	=63	=63
!LO:TX:a:t=P:problem=mixedbeam	!	!	!	!	!	!	!	!	!	!	!	!	!	!	!	!	!	!	!	!	!	!	!
8E-\L	3_	2ryy	.	8g/L	.	8g\L	.	2r	.	2r	.	8g\	no-	1r	.	1r	.	1r	.	1r	.	1r	.
8E-\	x	.	.	8e-/J	.	16ee-\L	.	.	.	.	.	16ee-\	-mi-	.	.	.	.	.	.	.	.	.	.
.	.	.	.	.	.	16cc\JJ	.	.	.	.	.	16cc\	-ne	.	.	.	.	.	.	.	.	.	.
!	!	!	!	!LO:LB:g=original	!	!	!	!	!	!	!	!	!	!	!	!	!	!	!	!	!	!	!
=-	=-	=-	=-	=-	=-	=-	=-	=-	=-	=-	=-	=-	=-	=-	=-	=-	=-	=-	=-	=-	=-	=-	=-
8F\	4	.	.	8d/L	.	8b-/L	.	.	.	.	.	8b-\	Do-	.	.	.	.	.	.	.	.	.	.
8FF/J	3	.	.	8c/J	.	8an/J	.	.	.	.	.	8an\	-mi-	.	.	.	.	.	.	.	.	.	.
=64	=64	=64	=64	=64	=64	=64	=64	=64	=64	=64	=64	=64	=64	=64	=64	=64	=64	=64	=64	=64	=64	=64	=64
8BB-/	.	2ryy	.	8d/	.	16b-\LL	.	2r	.	2r	.	8b-\	-ni	.	.	.	.	.	.	.	.	.	.
.	.	.	.	.	.	16ff\	.	.	.	.	.	.	.	.	.	.	.	.	.	.	.	.	.
8r	.	.	.	8r	.	16een\	.	.	.	.	.	8r	.	.	.	.	.	.	.	.	.	.	.
.	.	.	.	.	.	16ff\JJ	.	.	.	.	.	.	.	.	.	.	.	.	.	.	.	.	.
4r	.	.	.	4r	.	16ee-X\LL	.	.	.	.	.	4r	.	.	.	.	.	.	.	.	.	.	.
.	.	.	.	.	.	16dd\	.	.	.	.	.	.	.	.	.	.	.	.	.	.	.	.	.
.	.	.	.	.	.	16cc\	.	.	.	.	.	.	.	.	.	.	.	.	.	.	.	.	.
.	.	.	.	.	.	16b-\JJ	.	.	.	.	.	.	.	.	.	.	.	.	.	.	.	.	.
!	!	!	!	!	!	!LO:LB:g=original	!	!	!	!	!	!	!	!	!	!	!	!	!	!	!	!	!
=65	=65	=65	=65	=65	=65	=65	=65	=65	=65	=65	=65	=65	=65	=65	=65	=65	=65	=65	=65	=65	=65	=65	=65
!	!	!	!	!	!	!	!	!	!	!	!	!	!	!	!	!	!	!	!LO:DY:a:t=p.	!	!	!	!
8BB-/	.	2ryy	.	(16f/LL	.	2b-\	.	2r	.	2r	.	0r	.	2r	.	8B-/	.	8f\	p	(16dd\LL	.	16ff\LL	.
.	.	.	.	16a-X/)	.	.	.	.	.	.	.	.	.	.	.	.	.	.	.	16ff\)	.	16aa-X\	.
8r	.	.	.	16a-|</	.	.	.	.	.	.	.	.	.	.	.	8r	.	8r	.	16ff|>\	.	16aa-\	.
.	.	.	.	16a-|</JJ	.	.	.	.	.	.	.	.	.	.	.	.	.	.	.	16ff|>\JJ	.	16aa-\JJ	.
4r	.	.	.	(16f/LL	.	.	.	.	.	.	.	.	.	.	.	8B-/	.	8f\	.	(16dd\LL	.	16ff\LL	.
.	.	.	.	16a-/)	.	.	.	.	.	.	.	.	.	.	.	.	.	.	.	16ff\)	.	16aa-\	.
.	.	.	.	16a-|</	.	.	.	.	.	.	.	.	.	.	.	8r	.	8r	.	16ff|>\	.	16aa-\	.
.	.	.	.	16a-|</JJ	.	.	.	.	.	.	.	.	.	.	.	.	.	.	.	16ff|>\JJ	.	16aa-\JJ	.
=66	=66	=66	=66	=66	=66	=66	=66	=66	=66	=66	=66	=66	=66	=66	=66	=66	=66	=66	=66	=66	=66	=66	=66
!	!	!	!	!	!	!	!	!	!	!	!	!	!	!	!	!	!	!	!	!LO:TX:a:t=f:color=grey	!	!	!
8E-\	.	2ryy	.	8g/L	.	4.b-\	.	2r	.	2r	.	.	.	4.b-\	Be-	8e-\	.	8g\	.	8ee-\	.	8gg\	.
8r	.	.	.	16e-|</L	.	.	.	.	.	.	.	.	.	.	.	8r	.	8r	.	8r	.	8r	.
.	.	.	.	16e-|</JJ	.	.	.	.	.	.	.	.	.	.	.	.	.	.	.	.	.	.	.
4r	.	.	.	(16f/LL	.	.	.	.	.	.	.	.	.	.	.	4r	.	4r	.	4r	.	4r	.
.	.	.	.	16e-/)	.	.	.	.	.	.	.	.	.	.	.	.	.	.	.	.	.	.	.
.	.	.	.	(16e-/	.	8b-\	.	.	.	.	.	.	.	8b-\	-ne-	.	.	.	.	.	.	.	.
.	.	.	.	16g/JJ)	.	.	.	.	.	.	.	.	.	.	.	.	.	.	.	.	.	.	.
=67	=67	=67	=67	=67	=67	=67	=67	=67	=67	=67	=67	=67	=67	=67	=67	=67	=67	=67	=67	=67	=67	=67	=67
8BB-/	.	2ryy	.	(16g/LL	.	2b-\	.	2r	.	2r	.	.	.	2b-\	-di-	1r	.	1r	.	0r	.	0r	.
.	.	.	.	16f/)	.	.	.	.	.	.	.	.	.	.	.	.	.	.	.	.	.	.	.
8r	.	.	.	16f|</	.	.	.	.	.	.	.	.	.	.	.	.	.	.	.	.	.	.	.
.	.	.	.	16f|</JJ	.	.	.	.	.	.	.	.	.	.	.	.	.	.	.	.	.	.	.
4r	.	.	.	(16f/LL	.	.	.	.	.	.	.	.	.	.	.	.	.	.	.	.	.	.	.
.	.	.	.	16g/)	.	.	.	.	.	.	.	.	.	.	.	.	.	.	.	.	.	.	.
.	.	.	.	(16g/	.	.	.	.	.	.	.	.	.	.	.	.	.	.	.	.	.	.	.
.	.	.	.	16a-/JJ)	.	.	.	.	.	.	.	.	.	.	.	.	.	.	.	.	.	.	.
=68	=68	=68	=68	=68	=68	=68	=68	=68	=68	=68	=68	=68	=68	=68	=68	=68	=68	=68	=68	=68	=68	=68	=68
8E-\	.	2ryy	.	8g/	.	8b-\L	.	2r	.	2r	.	.	.	8b-\L	.	.	.	.	.	.	.	.	.
8r	.	.	.	8r	.	8ee-\	.	.	.	.	.	.	.	8ee-\J	.	.	.	.	.	.	.	.	.
4r	.	.	.	4r	.	8dd\	.	.	.	.	.	.	.	8dd\	-ctus	.	.	.	.	.	.	.	.
.	.	.	.	.	.	8cc\J	.	.	.	.	.	.	.	8cc\	qui	.	.	.	.	.	.	.	.
!	!	!	!	!	!	!	!	!	!	!	!	!	!	!	!	!	!	!LO:LB:g=original	!	!	!	!	!
=69	=69	=69	=69	=69	=69	=69	=69	=69	=69	=69	=69	=69	=69	=69	=69	=69	=69	=69	=69	=69	=69	=69	=69
8E-\	.	2ryy	.	8g/L	.	8b-/L	.	2r	.	2r	.	0r	.	4b-\	ve-	8e-\	.	8g\	.	.	.	.	.
8r	.	.	.	16f/L	.	16g/L	.	.	.	.	.	.	.	.	.	8r	.	8r	.	.	.	.	.
.	.	.	.	16g/JJ	.	16b-/JJ	.	.	.	.	.	.	.	.	.	.	.	.	.	.	.	.	.
.	.	.	.	.	.	16qqb-/	.	.	.	.	.	.	.	.	.	.	.	.	.	.	.	.	.
8BB-/	.	.	.	8f/L	.	8a-/L	.	.	.	.	.	.	.	4a-\	.	8B-/	.	8f\	.	.	.	.	.
8r	.	.	.	16d/L	.	16f/L	.	.	.	.	.	.	.	.	.	8r	.	8r	.	.	.	.	.
.	.	.	.	16f/JJ	.	16a-/JJ	.	.	.	.	.	.	.	.	.	.	.	.	.	.	.	.	.
!	!	!	!	!LO:LB:g=original	!	!	!	!	!	!	!	!	!	!	!	!	!	!	!	!	!	!	!
=70	=70	=70	=70	=70	=70	=70	=70	=70	=70	=70	=70	=70	=70	=70	=70	=70	=70	=70	=70	=70	=70	=70	=70
!	!	!	!	!	!	!LO:TX:a:t=P:problem=mixedbeam	!	!	!	!	!	!	!	!	!	!	!	!	!	!	!	!	!
8E-\	.	2ryy	.	8e-/	.	8g/L	.	2r	.	2r	.	.	.	8g\	-nit	8e-\	.	8g\	.	.	.	.	.
8r	.	.	.	8r	.	8ee-\	.	.	.	.	.	.	.	8ee-\L	in	8r	.	8r	.	.	.	.	.
4r	.	.	.	4r	.	8dd\	.	.	.	.	.	.	.	8dd\	.	4r	.	4r	.	.	.	.	.
.	.	.	.	.	.	8cc\J	.	.	.	.	.	.	.	8cc\J	.	.	.	.	.	.	.	.	.
!LO:LB:g=original	!	!LO:LB:g=original	!	!	!	!	!	!	!	!	!	!	!	!LO:LB:g=original	!	!	!	!	!	!	!	!	!
=71	=71	=71	=71	=71	=71	=71	=71	=71	=71	=71	=71	=71	=71	=71	=71	=71	=71	=71	=71	=71	=71	=71	=71
8E-\	.	2ryy	.	8b-/L	.	16b-\LL	.	2r	.	2r	.	.	.	16b-\LL	no-	8e-\L	.	8g\L	.	0r	.	0r	.
.	.	.	.	.	.	16ee-\	.	.	.	.	.	.	.	16ee-\JJ	.	.	.	.	.	.	.	.	.
8r	.	.	.	16g/L	.	16gg\	.	.	.	.	.	.	.	16gg\LL	-mi-	8f\J	.	8b-\J	.	.	.	.	.
.	.	.	.	16b-/JJ	.	16bb-\JJ	.	.	.	.	.	.	.	16bb-\JJ	-ne	.	.	.	.	.	.	.	.
8BB-/	.	.	.	16b-/LL	.	16bb-\LL	.	.	.	.	.	.	.	16bb-\LL	Do-	8f\L	.	8a-\L	.	.	.	.	.
.	.	.	.	16a-/	.	16aa-\	.	.	.	.	.	.	.	16aa-\JJ	.	.	.	.	.	.	.	.	.
8r	.	.	.	16g/	.	16ff\	.	.	.	.	.	.	.	16ff\LL	-mi-	16B-\L	.	16f\L	.	.	.	.	.
.	.	.	.	16a-/JJ	.	16dd\JJ	.	.	.	.	.	.	.	16dd\JJ	.	16f\JJ	.	16a-\JJ	.	.	.	.	.
=72	=72	=72	=72	=72	=72	=72	=72	=72	=72	=72	=72	=72	=72	=72	=72	=72	=72	=72	=72	=72	=72	=72	=72
8E-\	.	2ryy	.	8g/	.	8ee-\L	.	2r	.	2r	.	.	.	8ee-\	-ni	8e-\	.	8g\	.	.	.	.	.
8r	.	.	.	8r	.	16gg\L	.	.	.	.	.	.	.	16gg\LL	qui	8r	.	8r	.	.	.	.	.
.	.	.	.	.	.	16ff\JJ	.	.	.	.	.	.	.	16ff\JJ	.	.	.	.	.	.	.	.	.
8r	.	.	.	8r	.	16ee-\LL	.	.	.	.	.	.	.	16ee-\LL	ve-	4r	.	4r	.	.	.	.	.
.	.	.	.	.	.	16dd\	.	.	.	.	.	.	.	16dd\	.	.	.	.	.	.	.	.	.
8E-\	.	.	.	8g/	.	16cc\	.	.	.	.	.	.	.	16cc\	.	.	.	.	.	.	.	.	.
.	.	.	.	.	.	16b-\JJ	.	.	.	.	.	.	.	16b-\JJ	.	.	.	.	.	.	.	.	.
!	!	!	!	!	!	!LO:LB:g=original	!	!	!	!	!	!	!	!	!	!	!	!	!	!	!	!	!
=73	=73	=73	=73	=73	=73	=73	=73	=73	=73	=73	=73	=73	=73	=73	=73	=73	=73	=73	=73	=73	=73	=73	=73
*	*	*	*	*tremolo	*	*	*	*	*	*	*	*	*	*	*	*	*	*	*	*	*	*	*
8E-\L	.	2ryy	.	8f/L	.	16b-/LL	.	2r	.	2r	.	0r	.	16b-\LL	.	0r	.	0r	.	.	.	.	.
.	.	.	.	.	.	16a-/JJ	.	.	.	.	.	.	.	16a-\JJ	.	.	.	.	.	.	.	.	.
8E-\	.	.	.	8f/	.	4a-/	.	.	.	.	.	.	.	4a-\	-nit	.	.	.	.	.	.	.	.
8D\	.	.	.	8f/	.	.	.	.	.	.	.	.	.	.	.	.	.	.	.	.	.	.	.
8D\J	.	.	.	8f/J	.	16b-/LL	.	.	.	.	.	.	.	16b-\LL	in	.	.	.	.	.	.	.	.
.	.	.	.	.	.	16a-/JJ	.	.	.	.	.	.	.	16a-\JJ	.	.	.	.	.	.	.	.	.
=74	=74	=74	=74	=74	=74	=74	=74	=74	=74	=74	=74	=74	=74	=74	=74	=74	=74	=74	=74	=74	=74	=74	=74
8E-\L	.	2ryy	.	8e-/L	.	16a-/LL	.	2r	.	2r	.	.	.	16a-\LL	no-	.	.	.	.	.	.	.	.
.	.	.	.	.	.	16g/JJ	.	.	.	.	.	.	.	16g\JJ	.	.	.	.	.	.	.	.	.
8E-\	.	.	.	8e-/	.	4g/	.	.	.	.	.	.	.	4g\	.	.	.	.	.	.	.	.	.
8G\	.	.	.	8e-/	.	.	.	.	.	.	.	.	.	.	.	.	.	.	.	.	.	.	.
!	!	!	!	!	!	!LO:TX:a:t=P:problem=mixedbeam	!	!	!	!	!	!	!	!	!	!	!	!	!	!	!	!	!
8G\J	.	.	.	8e-/J	.	16ee-\LL	.	.	.	.	.	.	.	16ee-\	-mi-	.	.	.	.	.	.	.	.
.	.	.	.	.	.	16g/JJ	.	.	.	.	.	.	.	16g\	-ne	.	.	.	.	.	.	.	.
=75	=75	=75	=75	=75	=75	=75	=75	=75	=75	=75	=75	=75	=75	=75	=75	=75	=75	=75	=75	=75	=75	=75	=75
*tremolo	*	*	*	*	*	*	*	*	*	*	*	*	*	*	*	*	*	*	*	*	*	*	*
8A-\L	.	2ryy	.	8c/L	.	8g/L	.	2r	.	2r	.	.	.	16g/	Do-	.	.	.	.	1r	.	1r	.
.	.	.	.	.	.	.	.	.	.	.	.	.	.	16f/	-mi-	.	.	.	.	.	.	.	.
8A-\	.	.	.	8c/	.	16f/L	.	.	.	.	.	.	.	8f/	-ni	.	.	.	.	.	.	.	.
.	.	.	.	.	.	16f/JJ	.	.	.	.	.	.	.	.	.	.	.	.	.	.	.	.	.
8A-\	.	.	.	8c/	.	16ryy	.	.	.	.	.	.	.	4r	.	.	.	.	.	.	.	.	.
.	.	.	.	.	.	16a-/LL	.	.	.	.	.	.	.	.	.	.	.	.	.	.	.	.	.
8A-\J	.	.	.	8c/J	.	16cc/	.	.	.	.	.	.	.	.	.	.	.	.	.	.	.	.	.
.	.	.	.	.	.	16ff/JJ	.	.	.	.	.	.	.	.	.	.	.	.	.	.	.	.	.
*Xtremolo	*	*	*	*Xtremolo	*	*	*	*	*	*	*	*	*	*	*	*	*	*	*	*	*	*	*
=76	=76	=76	=76	=76	=76	=76	=76	=76	=76	=76	=76	=76	=76	=76	=76	=76	=76	=76	=76	=76	=76	=76	=76
8A-\	.	2ryy	.	8cc\	.	8aa-|>\L	.	2r	.	2r	.	.	.	2r	.	.	.	.	.	.	.	.	.
8r	.	.	.	8r	.	(32gg\LL	.	.	.	.	.	.	.	.	.	.	.	.	.	.	.	.	.
.	.	.	.	.	.	32ff\	.	.	.	.	.	.	.	.	.	.	.	.	.	.	.	.	.
.	.	.	.	.	.	32een\	.	.	.	.	.	.	.	.	.	.	.	.	.	.	.	.	.
.	.	.	.	.	.	32ff\JJJ)	.	.	.	.	.	.	.	.	.	.	.	.	.	.	.	.	.
8A-\	.	.	.	8cc\	.	8ccc|>\L	.	.	.	.	.	.	.	.	.	.	.	.	.	.	.	.	.
!LO:TX:b:t=Verte Cito	!	!	!	!	!	!	!	!	!	!	!	!	!	!	!	!	!	!	!	!	!	!	!
8r	.	.	.	8r	.	(32bb-\LL	.	.	.	.	.	.	.	.	.	.	.	.	.	.	.	.	.
.	.	.	.	.	.	32aa-\	.	.	.	.	.	.	.	.	.	.	.	.	.	.	.	.	.
.	.	.	.	.	.	32gg\	.	.	.	.	.	.	.	.	.	.	.	.	.	.	.	.	.
.	.	.	.	.	.	32ff\JJJ)	.	.	.	.	.	.	.	.	.	.	.	.	.	.	.	.	.
!LO:PB:g=original	!	!LO:PB:g=original	!	!	!	!	!	!	!	!	!	!	!	!	!	!	!	!	!	!	!	!	!
=77	=77	=77	=77	=77	=77	=77	=77	=77	=77	=77	=77	=77	=77	=77	=77	=77	=77	=77	=77	=77	=77	=77	=77
*	*	*	*	*	*	*	*	*	*	*	*	*	*	*	*ij	*	*	*	*	*	*	*	*
!LO:TX:a:t=P:problem=mixedbeam	!	!	!	!	!	!	!	!	!	!	!	!	!	!	!	!	!	!	!	!	!	!	!
8B-\L	.	4r	.	8g/L	.	8ee-X\L	.	2r	.	2r	.	2r	.	16ee-\	Do-	2r	.	2r	.	2r	.	2r	.
.	.	.	.	.	.	.	.	.	.	.	.	.	.	16ee-\	-mi-	.	.	.	.	.	.	.	.
8BB-/J	.	.	.	8f/J	.	8dd\J	.	.	.	.	.	.	.	8dd\	-ni	.	.	.	.	.	.	.	.
*	*	*	*	*	*	*	*	*	*	*	*	*	*	*	*Xij	*	*	*	*	*	*	*	*
4r	.	32b-\LLL	.	4r	.	4r	.	.	.	.	.	.	.	4r	.	.	.	.	.	.	.	.	.
.	.	32cc\	.	.	.	.	.	.	.	.	.	.	.	.	.	.	.	.	.	.	.	.	.
.	.	32dd\	.	.	.	.	.	.	.	.	.	.	.	.	.	.	.	.	.	.	.	.	.
.	.	32ee-\JJJ	.	.	.	.	.	.	.	.	.	.	.	.	.	.	.	.	.	.	.	.	.
.	.	32ff\LLL	.	.	.	.	.	.	.	.	.	.	.	.	.	.	.	.	.	.	.	.	.
.	.	32gg\	.	.	.	.	.	.	.	.	.	.	.	.	.	.	.	.	.	.	.	.	.
.	.	32aan\	.	.	.	.	.	.	.	.	.	.	.	.	.	.	.	.	.	.	.	.	.
.	.	32bb-\JJJ	.	.	.	.	.	.	.	.	.	.	.	.	.	.	.	.	.	.	.	.	.
!	!	!	!	!	!	!	!	!LO:LB:g=original	!	!	!	!	!	!LO:LB:g=original	!	!	!	!	!	!LO:LB:g=original	!	!	!
=78	=78	=78	=78	=78	=78	=78	=78	=78	=78	=78	=78	=78	=78	=78	=78	=78	=78	=78	=78	=78	=78	=78	=78
!	!	!	!	!	!LO:DY:a:t=p&colon;	!	!LO:DY:a:t=p.	!	!	!	!	!	!	!	!	!	!	!	!	!	!	!	!LO:DY:a:t=p.:rj
!	!	!	!	!	!	!	!	!	!	!	!	!	!	!	!	!	!	!LO:TX:t=P:problem=23 brakujące takty	!	!	!	!	!
16D\LL	.	32aa-X\LLL	.	8a-X/	p	8b-\	p	4.D\	Be-	4.B-\	Be-	4.f\	Be-	4.a-\	Be-	8B-/	.	2ryy	.	2ff\	.	2aa-\	p
.	.	32bb-\	.	.	.	.	.	.	.	.	.	.	.	.	.	.	.	.	.	.	.	.	.
16B-\	.	32aa-\	.	.	.	.	.	.	.	.	.	.	.	.	.	.	.	.	.	.	.	.	.
.	.	32gg\JJJ	.	.	.	.	.	.	.	.	.	.	.	.	.	.	.	.	.	.	.	.	.
16F\	.	32ff\LLL	.	4a-/	.	4b-\	.	.	.	.	.	.	.	.	.	8r	.	.	.	.	.	.	.
.	.	32gg\	.	.	.	.	.	.	.	.	.	.	.	.	.	.	.	.	.	.	.	.	.
16B-\JJ	.	32ff\	.	.	.	.	.	.	.	.	.	.	.	.	.	.	.	.	.	.	.	.	.
.	.	32ee-\JJJ	.	.	.	.	.	.	.	.	.	.	.	.	.	.	.	.	.	.	.	.	.
16D\LL	.	32dd\LLL	.	.	.	.	.	.	.	.	.	.	.	.	.	8B-/	.	.	.	.	.	.	.
.	.	32ee-\	.	.	.	.	.	.	.	.	.	.	.	.	.	.	.	.	.	.	.	.	.
16B-\	.	32dd\	.	.	.	.	.	.	.	.	.	.	.	.	.	.	.	.	.	.	.	.	.
.	.	32cc\JJJ	.	.	.	.	.	.	.	.	.	.	.	.	.	.	.	.	.	.	.	.	.
16F\	.	32b-\LLL	.	8a-/	.	8b-\	.	8D\	-ne-	8B-\	-ne-	8f\	-ne-	8a-\	-ne-	8r	.	.	.	.	.	.	.
.	.	32cc\	.	.	.	.	.	.	.	.	.	.	.	.	.	.	.	.	.	.	.	.	.
16B-\JJ	.	32b-\	.	.	.	.	.	.	.	.	.	.	.	.	.	.	.	.	.	.	.	.	.
.	.	32a-\JJJ	.	.	.	.	.	.	.	.	.	.	.	.	.	.	.	.	.	.	.	.	.
=79	=79	=79	=79	=79	=79	=79	=79	=79	=79	=79	=79	=79	=79	=79	=79	=79	=79	=79	=79	=79	=79	=79	=79
16E-\LL	.	32g/LLL	.	8g/	.	2b-\	.	4E-\	-di-	4B-\	-di-	4e-\	-di-	4g\	-di-	8e-\	.	2ryy	.	2dd\	.	2gg\	.
.	.	32f/	.	.	.	.	.	.	.	.	.	.	.	.	.	.	.	.	.	.	.	.	.
16B-\	.	32b-/	.	.	.	.	.	.	.	.	.	.	.	.	.	.	.	.	.	.	.	.	.
.	.	32g/JJJ	.	.	.	.	.	.	.	.	.	.	.	.	.	.	.	.	.	.	.	.	.
16G\	.	32ee-\LLL	.	4g/	.	.	.	.	.	.	.	.	.	.	.	8r	.	.	.	.	.	.	.
.	.	32b-\	.	.	.	.	.	.	.	.	.	.	.	.	.	.	.	.	.	.	.	.	.
16B-\JJ	.	32gg\	.	.	.	.	.	.	.	.	.	.	.	.	.	.	.	.	.	.	.	.	.
.	.	32ee-\JJJ	.	.	.	.	.	.	.	.	.	.	.	.	.	.	.	.	.	.	.	.	.
16E-\LL	.	32bb-\LLL	.	.	.	.	.	8E-\	-ctus	8B-\	-ctus	8e-\	-ctus	8g\	-ctus	8e-\	.	.	.	.	.	.	.
.	.	32gg\	.	.	.	.	.	.	.	.	.	.	.	.	.	.	.	.	.	.	.	.	.
16B-\	.	32ff\	.	.	.	.	.	.	.	.	.	.	.	.	.	.	.	.	.	.	.	.	.
.	.	32ee-\JJJ	.	.	.	.	.	.	.	.	.	.	.	.	.	.	.	.	.	.	.	.	.
16G\	.	32dd\LLL	.	8g/	.	.	.	8E-\	qui	8B-\	qui	8e-\	qui	8g\	qui	8r	.	.	.	.	.	.	.
.	.	32ee-\	.	.	.	.	.	.	.	.	.	.	.	.	.	.	.	.	.	.	.	.	.
16B-\JJ	.	32ff\	.	.	.	.	.	.	.	.	.	.	.	.	.	.	.	.	.	.	.	.	.
.	.	32gg\JJJ	.	.	.	.	.	.	.	.	.	.	.	.	.	.	.	.	.	.	.	.	.
!LO:LB:g=original	!	!LO:LB:g=original	!	!	!	!LO:LB:g=original	!	!	!	!	!	!	!	!	!	!LO:LB:g=original	!	!	!	!	!	!	!
=80	=80	=80	=80	=80	=80	=80	=80	=80	=80	=80	=80	=80	=80	=80	=80	=80	=80	=80	=80	=80	=80	=80	=80
16D\LL	.	(32aa-\LLL	.	8a-/	.	8b-\	.	2D\	ve-	2B-\	ve-	2f\	ve-	2a-\	ve-	8B-/	.	2ryy	.	2ff\	.	2aa-\	.
.	.	32bb-\	.	.	.	.	.	.	.	.	.	.	.	.	.	.	.	.	.	.	.	.	.
16B-\	.	32aa-\	.	.	.	.	.	.	.	.	.	.	.	.	.	.	.	.	.	.	.	.	.
.	.	32gg\JJJ)	.	.	.	.	.	.	.	.	.	.	.	.	.	.	.	.	.	.	.	.	.
16F\	.	(32ff\LLL	.	4a-/	.	4b-\	.	.	.	.	.	.	.	.	.	8r	.	.	.	.	.	.	.
.	.	32gg\	.	.	.	.	.	.	.	.	.	.	.	.	.	.	.	.	.	.	.	.	.
16B-\JJ	.	32ff\	.	.	.	.	.	.	.	.	.	.	.	.	.	.	.	.	.	.	.	.	.
.	.	32ee-\JJJ)	.	.	.	.	.	.	.	.	.	.	.	.	.	.	.	.	.	.	.	.	.
*rep	*	*	*	*	*	*	*	*	*	*	*	*	*	*	*	*	*	*	*	*	*	*	*
16D\LL	.	(32dd\LLL	.	.	.	.	.	.	.	.	.	.	.	.	.	8B-/	.	.	.	.	.	.	.
.	.	32ee-\	.	.	.	.	.	.	.	.	.	.	.	.	.	.	.	.	.	.	.	.	.
16B-\	.	32dd\	.	.	.	.	.	.	.	.	.	.	.	.	.	.	.	.	.	.	.	.	.
.	.	32cc\JJJ)	.	.	.	.	.	.	.	.	.	.	.	.	.	.	.	.	.	.	.	.	.
16F\	.	(32b-/LLL	.	8a-/	.	8b-\	.	.	.	.	.	.	.	.	.	8r	.	.	.	.	.	.	.
.	.	32cc/	.	.	.	.	.	.	.	.	.	.	.	.	.	.	.	.	.	.	.	.	.
16B-\JJ	.	32b-/	.	.	.	.	.	.	.	.	.	.	.	.	.	.	.	.	.	.	.	.	.
.	.	32a-/JJJ)	.	.	.	.	.	.	.	.	.	.	.	.	.	.	.	.	.	.	.	.	.
*Xrep	*	*	*	*	*	*	*	*	*	*	*	*	*	*	*	*	*	*	*	*	*	*	*
!	!	!	!	!	!	!	!	!	!	!LO:LB:g=original	!	!	!	!	!	!	!	!	!	!	!	!	!
=81	=81	=81	=81	=81	=81	=81	=81	=81	=81	=81	=81	=81	=81	=81	=81	=81	=81	=81	=81	=81	=81	=81	=81
16E-\LL	.	32g/LLL	.	8g/	.	2b-\	.	4E-\	-nit	4B-\	-nit	4e-\	-nit	4g\	-nit	8e-\	.	2ryy	.	2ee-\	.	2gg\	.
.	.	32e-/	.	.	.	.	.	.	.	.	.	.	.	.	.	.	.	.	.	.	.	.	.
16B-\	.	32f/	.	.	.	.	.	.	.	.	.	.	.	.	.	.	.	.	.	.	.	.	.
.	.	32g/JJJ	.	.	.	.	.	.	.	.	.	.	.	.	.	.	.	.	.	.	.	.	.
16G\	.	32a-\LLL	.	4g/	.	.	.	.	.	.	.	.	.	.	.	8r	.	.	.	.	.	.	.
.	.	32b-\	.	.	.	.	.	.	.	.	.	.	.	.	.	.	.	.	.	.	.	.	.
16B-\JJ	.	32cc\	.	.	.	.	.	.	.	.	.	.	.	.	.	.	.	.	.	.	.	.	.
.	.	32dd\JJJ	.	.	.	.	.	.	.	.	.	.	.	.	.	.	.	.	.	.	.	.	.
*rep	*	*	*	*	*	*	*	*	*	*	*	*	*	*	*	*	*	*	*	*	*	*	*
16E-\LL	.	32ee-\LLL	.	.	.	.	.	4E-\	in	4G/	in	4e-\	in	4b-\	in	8e-\	.	.	.	.	.	.	.
.	.	32ff\	.	.	.	.	.	.	.	.	.	.	.	.	.	.	.	.	.	.	.	.	.
16B-\	.	32gg\	.	.	.	.	.	.	.	.	.	.	.	.	.	.	.	.	.	.	.	.	.
.	.	32ff\JJJ	.	.	.	.	.	.	.	.	.	.	.	.	.	.	.	.	.	.	.	.	.
16G\	.	16ee-\LL	.	8g/	.	.	.	.	.	.	.	.	.	.	.	8r	.	.	.	.	.	.	.
16B-\JJ	.	16ee-T\JJ	.	.	.	.	.	.	.	.	.	.	.	.	.	.	.	.	.	.	.	.	.
*Xrep	*	*	*	*	*	*	*	*	*	*	*	*	*	*	*	*	*	*	*	*	*	*	*
!	!	!	!	!	!	!	!	!	!	!	!	!LO:LB:g=original	!	!	!	!	!	!	!	!	!	!	!
=82	=82	=82	=82	=82	=82	=82	=82	=82	=82	=82	=82	=82	=82	=82	=82	=82	=82	=82	=82	=82	=82	=82	=82
*	*	*	*	*^	*	*	*	*	*	*	*	*	*	*	*	*	*	*	*	*	*	*	*
*	*	*	*	*	*2\right	*	*	*	*	*	*	*	*	*	*	*	*	*	*	*	*	*	*	*
*tremolo	*	*	*	*	*tremolo	*	*	*	*	*	*	*	*	*	*	*	*	*	*	*	*	*	*	*
!	!	!	!LO:DY:b=2:t=f.p.	!	!	!LO:DY:a:t=fp&colon;	!	!LO:DY:a:t=fp.	!	!	!	!	!	!	!	!	!	!	!	!	!	!	!	!
8G\L	6 5-	2ryy	fp	8b-/L	8e-\L	fp	16dd-X\KL	fp	4G\	no-	4B-\	No-	4e-\	no-	4dd-X\	no-	8E-/	.	2ryy	.	2dd-X\	.	2ee-\	.
.	.	.	.	.	.	.	8dd-\	.	.	.	.	.	.	.	.	.	.	.	.	.	.	.	.	.
8G\	.	.	.	8b-/	8e-\	.	.	.	.	.	.	.	.	.	.	.	8r	.	.	.	.	.	.	.
.	.	.	.	.	.	.	8dd-\	.	.	.	.	.	.	.	.	.	.	.	.	.	.	.	.	.
8G\	.	.	.	8b-/	8e-\	.	.	.	8G\	-mi-	8B-\	-mi-	8e-\	-mi-	8dd-\	-mi-	4r	.	.	.	.	.	.	.
.	.	.	.	.	.	.	8dd-\	.	.	.	.	.	.	.	.	.	.	.	.	.	.	.	.	.
8G\J	.	.	.	8b-/J	8e-\J	.	.	.	8G\	-ne	8B-\	-ne	8e-\	-ne	8dd-\	-ne	.	.	.	.	.	.	.	.
.	.	.	.	.	.	.	16dd-\Jk	.	.	.	.	.	.	.	.	.	.	.	.	.	.	.	.	.
*	*	*	*	*	*Xtremolo	*	*	*	*	*	*	*	*	*	*	*	*	*	*	*	*	*	*	*
*	*	*	*	*v	*v	*	*	*	*	*	*	*	*	*	*	*	*	*	*	*	*	*	*	*
=83	=83	=83	=83	=83	=83	=83	=83	=83	=83	=83	=83	=83	=83	=83	=83	=83	=83	=83	=83	=83	=83	=83	=83
*	*	*	*	*tremolo	*	*	*	*	*	*	*	*	*	*	*	*	*	*	*	*	*	*	*
!	!	!	!LO:DY:b=2:t=fp.	!	!LO:DY:a:t=fp.	!	!LO:DY:a:t=fp.	!	!	!	!	!	!	!	!	!	!	!	!	!	!	!	!
8A-\L	.	2ryy	fp	8f/L	fp	16cc\KL	fp	8.A-\	Do-	8.A-/	Do-	8.e-\	Do-	8.cc\	Do-	4E-/	.	2ryy	.	2cc\	.	2ee-\	.
.	.	.	.	.	.	8cc\	.	.	.	.	.	.	.	.	.	.	.	.	.	.	.	.	.
8A-\	.	.	.	8f/	.	.	.	.	.	.	.	.	.	.	.	.	.	.	.	.	.	.	.
.	.	.	.	.	.	8cc\	.	16A-\	-mi-	16A-/	-mi-	16e-\	-mi-	16cc\	-mi-	.	.	.	.	.	.	.	.
8A-\	.	.	.	8f/	.	.	.	8A-\	-ni	8A-/	-ni	8e-\	-ni	8cc\	-ni	4r	.	.	.	.	.	.	.
.	.	.	.	.	.	8cc\	.	.	.	.	.	.	.	.	.	.	.	.	.	.	.	.	.
8A-\J	.	.	.	8f/J	.	.	.	8A-\	qui	8A-/	o	8e-\	o	8cc\	o	.	.	.	.	.	.	.	.
.	.	.	.	.	.	16cc\Jk	.	.	.	.	.	.	.	.	.	.	.	.	.	.	.	.	.
!	!	!	!	!	!	!	!	!	!	!	!	!	!	!	!	!	!	!	!	!	!	!LO:LB:g=original	!
=84	=84	=84	=84	=84	=84	=84	=84	=84	=84	=84	=84	=84	=84	=84	=84	=84	=84	=84	=84	=84	=84	=84	=84
!	!	!	!LO:DY:b=2:t=fp.	!	!LO:DY:a:t=fp.	!	!LO:DY:a:t=fp.	!	!	!	!	!	!	!	!	!	!	!	!	!	!	!	!
8En\L	6 5	2ryy	fp	8g\L 8cc	fp	16cc\KL	fp	2En\	ve-	2c\	san-	2g\	san-	2b-\	San-	1r	.	2ryy	.	2cc\	.	2gg\	.
.	.	.	.	.	.	8bb-\	.	.	.	.	.	.	.	.	.	.	.	.	.	.	.	.	.
8E\	.	.	.	8g\ 8cc	.	.	.	.	.	.	.	.	.	.	.	.	.	.	.	.	.	.	.
.	.	.	.	.	.	8bb-\	.	.	.	.	.	.	.	.	.	.	.	.	.	.	.	.	.
8E\	.	.	.	8g\ 8cc	.	.	.	.	.	.	.	.	.	.	.	.	.	.	.	.	.	.	.
.	.	.	.	.	.	8bb-\	.	.	.	.	.	.	.	.	.	.	.	.	.	.	.	.	.
8E\J	.	.	.	8g\J 8cc	.	.	.	.	.	.	.	.	.	.	.	.	.	.	.	.	.	.	.
.	.	.	.	.	.	16bb-\Jk	.	.	.	.	.	.	.	.	.	.	.	.	.	.	.	.	.
!LO:LB:g=original	!	!LO:LB:g=original	!	!	!	!	!	!	!	!	!	!	!	!	!	!	!	!	!	!	!	!	!
=85	=85	=85	=85	=85	=85	=85	=85	=85	=85	=85	=85	=85	=85	=85	=85	=85	=85	=85	=85	=85	=85	=85	=85
!	!	!	!LO:DY:b=2:t=fp.	!	!LO:DY:a:t=fp.	!	!	!	!	!	!	!	!	!	!	!	!	!	!	!	!	!	!
8F\L	-	2ryy	fp	8cc\L	fp	16aa-X\KL	.	4F\	-nit	4c\	-na	4f\	-na	4a-X\	-na	.	.	2ryy	.	2cc\	.	2aa-\	.
.	.	.	.	.	.	8aa-\	.	.	.	.	.	.	.	.	.	.	.	.	.	.	.	.	.
8F\	.	.	.	8cc\	.	.	.	.	.	.	.	.	.	.	.	.	.	.	.	.	.	.	.
.	.	.	.	.	.	8aa-\	.	.	.	.	.	.	.	.	.	.	.	.	.	.	.	.	.
8F\	.	.	.	8cc\	.	.	.	8F\	o	8c\	in	8f\	in	8a-\	in	.	.	.	.	.	.	.	.
.	.	.	.	.	.	8aa-\	.	.	.	.	.	.	.	.	.	.	.	.	.	.	.	.	.
8F\J	.	.	.	8cc\J	.	.	.	8F\	san-	8c\	ex-	8f\	ex-	8a-\	ex-	.	.	.	.	.	.	.	.
.	.	.	.	.	.	16aa-\Jk	.	.	.	.	.	.	.	.	.	.	.	.	.	.	.	.	.
!	!	!	!	!	!	!	!	!LO:LB:g=original	!	!	!	!	!	!	!	!	!	!	!	!	!	!	!
=86	=86	=86	=86	=86	=86	=86	=86	=86	=86	=86	=86	=86	=86	=86	=86	=86	=86	=86	=86	=86	=86	=86	=86
!	!	!	!LO:DY:b=2:t=fp.	!	!LO:DY:a	!	!	!	!	!	!	!	!	!	!	!	!	!	!	!	!	!	!
8D\L	6 5	2ryy	fp	8b-X\L	fp	16b-\KL	.	2D\	-na	2B-\	-cel-	2f\	-cel-	2a-\	-Cel-	8B-/	.	2ryy	.	2b-\	.	2aa-\	.
.	.	.	.	.	.	8aa-\	.	.	.	.	.	.	.	.	.	.	.	.	.	.	.	.	.
8D\	.	.	.	8b-\	.	.	.	.	.	.	.	.	.	.	.	8r	.	.	.	.	.	.	.
.	.	.	.	.	.	8aa-\	.	.	.	.	.	.	.	.	.	.	.	.	.	.	.	.	.
8D\	.	.	.	8b-\	.	.	.	.	.	.	.	.	.	.	.	8B-/	.	.	.	.	.	.	.
.	.	.	.	.	.	8aa-\	.	.	.	.	.	.	.	.	.	.	.	.	.	.	.	.	.
8D\J	.	.	.	8b-\J	.	.	.	.	.	.	.	.	.	.	.	8r	.	.	.	.	.	.	.
.	.	.	.	.	.	16aa-\Jk	.	.	.	.	.	.	.	.	.	.	.	.	.	.	.	.	.
!	!	!	!	!	!	!	!	!	!	!	!	!	!	!LO:LB:g=original	!	!	!	!	!	!	!	!	!
=87	=87	=87	=87	=87	=87	=87	=87	=87	=87	=87	=87	=87	=87	=87	=87	=87	=87	=87	=87	=87	=87	=87	=87
!	!	!	!LO:DY:b=2:t=fp.	!	!LO:DY:a:t=fp.	!	!LO:DY:a:t=fp.	!	!	!	!	!	!	!	!	!	!	!	!	!	!	!	!
8E-\L	.	2ryy	fp	8b-\L	fp	16gg\KL	fp	4E-X\	.	4B-\	-sis	4g\	-ſis	4g\	-ſis	8e-\	.	2ryy	.	2b-\	.	2gg\	.
.	.	.	.	.	.	8gg\	.	.	.	.	.	.	.	.	.	.	.	.	.	.	.	.	.
8E-\	.	.	.	8b-\	.	.	.	.	.	.	.	.	.	.	.	8r	.	.	.	.	.	.	.
.	.	.	.	.	.	8gg\	.	.	.	.	.	.	.	.	.	.	.	.	.	.	.	.	.
8E-\	.	.	.	8b-\	.	.	.	4E-\	o	4B-\	o	4g\	o	4ee-\	o	8e-\	.	.	.	.	.	.	.
.	.	.	.	.	.	8gg\	.	.	.	.	.	.	.	.	.	.	.	.	.	.	.	.	.
8E-\J	.	.	.	8b-\J	.	.	.	.	.	.	.	.	.	.	.	8r	.	.	.	.	.	.	.
.	.	.	.	.	.	16gg\Jk	.	.	.	.	.	.	.	.	.	.	.	.	.	.	.	.	.
*Xtremolo	*	*	*	*	*	*	*	*	*	*	*	*	*	*	*	*	*	*	*	*	*	*	*
!	!	!	!	!	!	!LO:LB:g=original	!	!	!	!	!	!	!	!	!	!	!	!	!	!	!	!	!
=88	=88	=88	=88	=88	=88	=88	=88	=88	=88	=88	=88	=88	=88	=88	=88	=88	=88	=88	=88	=88	=88	=88	=88
!	!	!	!LO:DY:b=2:t=fp.	!	!LO:DY:a:t=fp.	!	!LO:DY:a:t=fp.	!	!	!	!	!	!	!	!	!	!	!	!	!	!	!	!
8A-\L	.	2ryy	fp	8cc\L	fp	16ff\KL	fp	4A-\	san-	2c\	san-	2f\	san-	2ee-\	San-	8e-\	.	2ryy	.	2ee-\	.	2ff\	.
.	.	.	.	.	.	8ff\	.	.	.	.	.	.	.	.	.	.	.	.	.	.	.	.	.
8A-\	.	.	.	8cc\	.	.	.	.	.	.	.	.	.	.	.	8r	.	.	.	.	.	.	.
.	.	.	.	.	.	8ff\	.	.	.	.	.	.	.	.	.	.	.	.	.	.	.	.	.
8An\	.	.	.	8cc\	.	.	.	4An\	-na	.	.	.	.	.	.	4r	.	.	.	.	.	.	.
.	.	.	.	.	.	8ff\	.	.	.	.	.	.	.	.	.	.	.	.	.	.	.	.	.
8A\J	.	.	.	8cc\J	.	.	.	.	.	.	.	.	.	.	.	.	.	.	.	.	.	.	.
.	.	.	.	.	.	16ff\Jk	.	.	.	.	.	.	.	.	.	.	.	.	.	.	.	.	.
*	*	*	*	*Xtremolo	*	*	*	*	*	*	*	*	*	*	*	*	*	*	*	*	*	*	*
=89	=89	=89	=89	=89	=89	=89	=89	=89	=89	=89	=89	=89	=89	=89	=89	=89	=89	=89	=89	=89	=89	=89	=89
*tremolo	*	*	*	*	*	*	*	*	*	*	*	*	*	*	*	*	*	*	*	*	*	*	*
8B-\L	6 4	2ryy	.	16g/LL	.	16gg\LL	.	4B-\	in	4B-\	-na	4g\	-na	2ee-\	-na	2e-\	.	2ryy	.	2ee-\	.	2gg\	.
.	.	.	.	16b-/	.	16bb-\JJ	.	.	.	.	.	.	.	.	.	.	.	.	.	.	.	.	.
8B-\	.	.	.	16g/	.	16r	.	.	.	.	.	.	.	.	.	.	.	.	.	.	.	.	.
.	.	.	.	16b-/JJ	.	8bb-\L	.	.	.	.	.	.	.	.	.	.	.	.	.	.	.	.	.
!	!	!	!	!LO:LB:g=original	!	!	!	!	!	!	!	!	!	!	!	!	!	!	!	!	!	!	!
=-	=-	=-	=-	=-	=-	=-	=-	=-	=-	=-	=-	=-	=-	=-	=-	=-	=-	=-	=-	=-	=-	=-	=-
8B-\	.	.	.	16g/LL	.	.	.	4B-\	ex-	8B-\	in	8g\	in	.	.	.	.	.	.	.	.	.	.
.	.	.	.	16b-/	.	8gg\	.	.	.	.	.	.	.	.	.	.	.	.	.	.	.	.	.
8B-\J	.	.	.	16a-/	.	.	.	.	.	8B-\	ex-	8g\	ex-	.	.	.	.	.	.	.	.	.	.
.	.	.	.	16b-/JJ	.	16ee-\Jk	.	.	.	.	.	.	.	.	.	.	.	.	.	.	.	.	.
=90	=90	=90	=90	=90	=90	=90	=90	=90	=90	=90	=90	=90	=90	=90	=90	=90	=90	=90	=90	=90	=90	=90	=90
8BB-/L	5 3	2ryy	.	16a-/LL	.	16dd\LL	.	2BB-/	-cel-	2B-\	-cel-	2f\	-cel-	8dd\	in	2B-/	.	2ryy	.	2ff\	.	2aa-\	.
.	.	.	.	16b-/	.	16ff\JJ	.	.	.	.	.	.	.	.	.	.	.	.	.	.	.	.	.
8BB-/	.	.	.	16a-/	.	16r	.	.	.	.	.	.	.	8dd\	ex-	.	.	.	.	.	.	.	.
.	.	.	.	16b-/JJ	.	8aa-\L	.	.	.	.	.	.	.	.	.	.	.	.	.	.	.	.	.
*	*	*	*	*rep	*	*	*	*	*	*	*	*	*	*	*	*	*	*	*	*	*	*	*
8BB-/	.	.	.	16a-/LL	.	.	.	.	.	.	.	.	.	4dd\	-Cel-	.	.	.	.	.	.	.	.
.	.	.	.	16b-/	.	8ff\	.	.	.	.	.	.	.	.	.	.	.	.	.	.	.	.	.
8BB-/J	.	.	.	16a-/	.	.	.	.	.	.	.	.	.	.	.	.	.	.	.	.	.	.	.
.	.	.	.	16b-/JJ	.	16dd\Jk	.	.	.	.	.	.	.	.	.	.	.	.	.	.	.	.	.
*Xtremolo	*	*	*	*Xrep	*	*	*	*	*	*	*	*	*	*	*	*	*	*	*	*	*	*	*
!	!	!	!	!	!	!	!	!	!	!LO:LB:g=original	!	!LO:LB:g=original	!	!	!	!	!	!	!	!	!	!	!
=91	=91	=91	=91	=91	=91	=91	=91	=91	=91	=91	=91	=91	=91	=91	=91	=91	=91	=91	=91	=91	=91	=91	=91
8E-\L	.	2ryy	.	8g/L	.	16ee-\KL	.	8E-\	-ſis	8B-\	-sis	8g\	-ſis	8ee-\	-ſis	8E-/L	.	2ryy	.	8ee-\	.	8gg\	.
.	.	.	.	.	.	8ee-\	.	.	.	.	.	.	.	.	.	.	.	.	.	.	.	.	.
8c\	3	.	.	8e-/	.	.	.	8c\	o	8c\	o	8e-\	o	8ee-\	o	8E-/	.	.	.	8r	.	8r	.
.	.	.	.	.	.	8ee-\	.	.	.	.	.	.	.	.	.	.	.	.	.	.	.	.	.
8B-\	3	.	.	8d/	.	.	.	8B-\L	san-	8B-\	san-	8d\L	san-	4ee-\	san-	8E-/	.	.	.	4r	.	4r	.
.	.	.	.	.	.	8ee-\	.	.	.	.	.	.	.	.	.	.	.	.	.	.	.	.	.
8A-\J	3	.	.	8c/J	.	.	.	8A-\J	.	8c\	-na	8c\J	.	.	.	8E-/J	.	.	.	.	.	.	.
.	.	.	.	.	.	16ee-\Jk	.	.	.	.	.	.	.	.	.	.	.	.	.	.	.	.	.
=92	=92	=92	=92	=92	=92	=92	=92	=92	=92	=92	=92	=92	=92	=92	=92	=92	=92	=92	=92	=92	=92	=92	=92
8G\L	6	2ryy	.	8B-/L	.	8.ee-\L	.	4G\	-na	4e-\	in	8B-/	-na	4ee-\	-na	4E-/	.	2ryy	.	2r	.	2r	.
8G\	.	.	.	8e-/	.	.	.	.	.	.	.	8e-\	in	.	.	.	.	.	.	.	.	.	.
.	.	.	.	.	.	16ee-\Jk	.	.	.	.	.	.	.	.	.	.	.	.	.	.	.	.	.
8A-\	.	.	.	8e-/	.	16dd\LL	.	8A-\	in	4c\	.	4e-\	ex-	16dd\LL	in	4r	.	.	.	.	.	.	.
.	.	.	.	.	.	16cc\	.	.	.	.	.	.	.	16cc\JJ	.	.	.	.	.	.	.	.	.
8A-\J	.	.	.	8e-/J	.	16b-\	.	8A-\	ex-	.	.	.	.	16b-\LL	ex-	.	.	.	.	.	.	.	.
.	.	.	.	.	.	16a-\JJ	.	.	.	.	.	.	.	16a-\JJ	.	.	.	.	.	.	.	.	.
!	!	!	!	!	!	!	!	!	!	!	!	!	!	!	!	!	!	!	!	!LO:LB:g=original	!	!	!
=93	=93	=93	=93	=93	=93	=93	=93	=93	=93	=93	=93	=93	=93	=93	=93	=93	=93	=93	=93	=93	=93	=93	=93
*tremolo	*	*	*	*tremolo	*	*	*	*	*	*	*	*	*	*	*	*	*	*	*	*	*	*	*
!	!	!	!	!	!	!	!	!	!	!	!	!	!	!	!	!	!	!	!	!	!	!	!LO:DY:a:t=for:rj
8B-\L	6 4	2ryy	.	8g/L	.	16g/LL	.	2B-\	-cel-	2B-\	ex-	2g\	-cel-	4g\	-Cel-	2G/	.	2ryy	.	2ee-\	.	2gg\	f
.	.	.	.	.	.	16f/	.	.	.	.	.	.	.	.	.	.	.	.	.	.	.	.	.
8B-\	.	.	.	8g/	.	16g/	.	.	.	.	.	.	.	.	.	.	.	.	.	.	.	.	.
.	.	.	.	.	.	16b-/JJ	.	.	.	.	.	.	.	.	.	.	.	.	.	.	.	.	.
8B-\	.	.	.	8g/	.	16ee-\LL	.	.	.	.	.	.	.	4ee-\	.	.	.	.	.	.	.	.	.
.	.	.	.	.	.	16gg\	.	.	.	.	.	.	.	.	.	.	.	.	.	.	.	.	.
8B-\J	.	.	.	8g/J	.	16bb-\	.	.	.	.	.	.	.	.	.	.	.	.	.	.	.	.	.
.	.	.	.	.	.	16bb-\JJ	.	.	.	.	.	.	.	.	.	.	.	.	.	.	.	.	.
!LO:LB:g=original	!	!LO:LB:g=original	!	!	!	!	!	!	!	!	!	!	!	!	!	!	!	!	!	!	!	!	!
=94	=94	=94	=94	=94	=94	=94	=94	=94	=94	=94	=94	=94	=94	=94	=94	=94	=94	=94	=94	=94	=94	=94	=94
8BB-/L	.	2ryy	.	8f/L	.	(16aa-\LL	.	2BB-/	.	2B-\	-cel-	2f\	.	2dd\	.	2B-/	.	2ryy	.	2ff\	.	2aa-\	.
.	.	.	.	.	.	16ff\)	.	.	.	.	.	.	.	.	.	.	.	.	.	.	.	.	.
8BB-/	.	.	.	8f/	.	(16ee-\	.	.	.	.	.	.	.	.	.	.	.	.	.	.	.	.	.
.	.	.	.	.	.	16dd\JJ)	.	.	.	.	.	.	.	.	.	.	.	.	.	.	.	.	.
8BB-/	.	.	.	8f/	.	(16b-\LL	.	.	.	.	.	.	.	.	.	.	.	.	.	.	.	.	.
.	.	.	.	.	.	16a-\)	.	.	.	.	.	.	.	.	.	.	.	.	.	.	.	.	.
8BB-/J	.	.	.	8f/J	.	16f|>\	.	.	.	.	.	.	.	.	.	.	.	.	.	.	.	.	.
.	.	.	.	.	.	16dd|>\JJ	.	.	.	.	.	.	.	.	.	.	.	.	.	.	.	.	.
*Xtremolo	*	*	*	*Xtremolo	*	*	*	*	*	*	*	*	*	*	*	*	*	*	*	*	*	*	*
!	!	!	!	!	!	!LO:LB:g=original	!	!LO:LB:g=original	!	!	!	!	!	!	!	!	!	!	!	!	!	!	!
=95	=95	=95	=95	=95	=95	=95	=95	=95	=95	=95	=95	=95	=95	=95	=95	=95	=95	=95	=95	=95	=95	=95	=95
!LO:TX:a:t=P:problem=mixedbeam	!	!	!	!	!	!LO:TX:a:t=P:problem=mixedbeam	!	!	!	!	!	!	!	!	!	!	!	!	!	!	!	!	!
8E-\L	.	4r	.	8g/L	.	8ee-\L	.	4E-\	-ſis	4B-\	-sis	4g\	-ſis	4ee-\	-ſis	8G/L	.	2ryy	.	8ee-\L	.	8gg\L	.
8BB-/	.	.	.	8g/	.	8e-/	.	.	.	.	.	.	.	.	.	8G/	.	.	.	8ee-\	.	8gg\	.
8EE-/J	.	8r	.	8g/J	.	8e-/J	.	4r	.	4r	.	4r	.	4r	.	8G/J	.	.	.	8ee-\J	.	8gg\J	.
8r	.	32ee-\LLL	.	8r	.	8r	.	.	.	.	.	.	.	.	.	8r	.	.	.	8r	.	8r	.
.	.	32dd\	.	.	.	.	.	.	.	.	.	.	.	.	.	.	.	.	.	.	.	.	.
.	.	32ee-\	.	.	.	.	.	.	.	.	.	.	.	.	.	.	.	.	.	.	.	.	.
.	.	32ff\JJJ	.	.	.	.	.	.	.	.	.	.	.	.	.	.	.	.	.	.	.	.	.
*clefG2	*	*	*	*	*	*	*	*	*	*	*	*	*	*	*	*	*	*	*	*	*	*	*
!	!	!	!	!	!	!	!	!	!	!	!	!	!	!	!	!LO:LB:g=original	!	!	!	!	!	!LO:LB:g=original	!
=96	=96	=96	=96	=96	=96	=96	=96	=96	=96	=96	=96	=96	=96	=96	=96	=96	=96	=96	=96	=96	=96	=96	=96
!	!	!	!	!	!	!	!	!	!	!LO:TX:a:t=15	!	!	!	!	!	!	!	!	!	!	!	!	!
16e-/LL	.	8ee-\L	.	0r	.	0r	.	0r	.	2r	.	0r	.	0r	.	0r	.	2ryy	.	0r	.	0r	.
16b-/	.	.	.	.	.	.	.	.	.	.	.	.	.	.	.	.	.	.	.	.	.	.	.
16g/	.	8ee-T\J	.	.	.	.	.	.	.	.	.	.	.	.	.	.	.	.	.	.	.	.	.
16b-/JJ	.	.	.	.	.	.	.	.	.	.	.	.	.	.	.	.	.	.	.	.	.	.	.
*rep	*	*	*	*	*	*	*	*	*	*	*	*	*	*	*	*	*	*	*	*	*	*	*
16e-/LL	.	32ee-\LLL	.	.	.	.	.	.	.	.	.	.	.	.	.	.	.	.	.	.	.	.	.
.	.	32dd\	.	.	.	.	.	.	.	.	.	.	.	.	.	.	.	.	.	.	.	.	.
16b-/	.	32ee-\	.	.	.	.	.	.	.	.	.	.	.	.	.	.	.	.	.	.	.	.	.
.	.	32ff\JJJ	.	.	.	.	.	.	.	.	.	.	.	.	.	.	.	.	.	.	.	.	.
16g/	.	16ee-\LL	.	.	.	.	.	.	.	.	.	.	.	.	.	.	.	.	.	.	.	.	.
16b-/JJ	.	16gg\JJ	.	.	.	.	.	.	.	.	.	.	.	.	.	.	.	.	.	.	.	.	.
*Xrep	*	*	*	*	*	*	*	*	*	*	*	*	*	*	*	*	*	*	*	*	*	*	*
=97	=97	=97	=97	=97	=97	=97	=97	=97	=97	=97	=97	=97	=97	=97	=97	=97	=97	=97	=97	=97	=97	=97	=97
16e-/LL	.	32gg\LLL	.	.	.	.	.	.	.	2r	.	.	.	.	.	.	.	2ryy	.	.	.	.	.
.	.	(32ff\	.	.	.	.	.	.	.	.	.	.	.	.	.	.	.	.	.	.	.	.	.
16cc/	.	32een\	.	.	.	.	.	.	.	.	.	.	.	.	.	.	.	.	.	.	.	.	.
.	.	32ff\JJ)	.	.	.	.	.	.	.	.	.	.	.	.	.	.	.	.	.	.	.	.	.
16a-/	.	8ff\J	.	.	.	.	.	.	.	.	.	.	.	.	.	.	.	.	.	.	.	.	.
16cc/JJ	.	.	.	.	.	.	.	.	.	.	.	.	.	.	.	.	.	.	.	.	.	.	.
*rep	*	*	*	*	*	*	*	*	*	*	*	*	*	*	*	*	*	*	*	*	*	*	*
16e-/LL	.	8r	.	.	.	.	.	.	.	.	.	.	.	.	.	.	.	.	.	.	.	.	.
16cc/	.	.	.	.	.	.	.	.	.	.	.	.	.	.	.	.	.	.	.	.	.	.	.
16a-/	.	(32ff\LLL	.	.	.	.	.	.	.	.	.	.	.	.	.	.	.	.	.	.	.	.	.
.	.	32ee\	.	.	.	.	.	.	.	.	.	.	.	.	.	.	.	.	.	.	.	.	.
16cc/JJ	.	32ff\	.	.	.	.	.	.	.	.	.	.	.	.	.	.	.	.	.	.	.	.	.
.	.	32gg\JJJ)	.	.	.	.	.	.	.	.	.	.	.	.	.	.	.	.	.	.	.	.	.
*Xrep	*	*	*	*	*	*	*	*	*	*	*	*	*	*	*	*	*	*	*	*	*	*	*
=98	=98	=98	=98	=98	=98	=98	=98	=98	=98	=98	=98	=98	=98	=98	=98	=98	=98	=98	=98	=98	=98	=98	=98
16d/LL	.	8ff\L	.	.	.	.	.	.	.	2r	.	.	.	.	.	.	.	2ryy	.	.	.	.	.
16b-/	.	.	.	.	.	.	.	.	.	.	.	.	.	.	.	.	.	.	.	.	.	.	.
16d/	.	8ff\J	.	.	.	.	.	.	.	.	.	.	.	.	.	.	.	.	.	.	.	.	.
16b-/JJ	.	.	.	.	.	.	.	.	.	.	.	.	.	.	.	.	.	.	.	.	.	.	.
16d/LL	.	32ff\LLL	.	.	.	.	.	.	.	.	.	.	.	.	.	.	.	.	.	.	.	.	.
.	.	32ee-\	.	.	.	.	.	.	.	.	.	.	.	.	.	.	.	.	.	.	.	.	.
16b-/	.	32ff\	.	.	.	.	.	.	.	.	.	.	.	.	.	.	.	.	.	.	.	.	.
.	.	32gg\JJJ	.	.	.	.	.	.	.	.	.	.	.	.	.	.	.	.	.	.	.	.	.
16f/	.	16ff\LL	.	.	.	.	.	.	.	.	.	.	.	.	.	.	.	.	.	.	.	.	.
16b-/JJ	.	16aa-\JJ	.	.	.	.	.	.	.	.	.	.	.	.	.	.	.	.	.	.	.	.	.
!LO:LB:g=original	!	!LO:LB:g=original	!	!	!	!	!	!	!	!	!	!	!	!	!	!	!	!	!	!	!	!	!
=99	=99	=99	=99	=99	=99	=99	=99	=99	=99	=99	=99	=99	=99	=99	=99	=99	=99	=99	=99	=99	=99	=99	=99
16d/LL	.	32aa-\LLL	.	.	.	.	.	.	.	2r	.	.	.	.	.	.	.	2ryy	.	.	.	.	.
.	.	32gg\	.	.	.	.	.	.	.	.	.	.	.	.	.	.	.	.	.	.	.	.	.
16b-/	.	32ff\	.	.	.	.	.	.	.	.	.	.	.	.	.	.	.	.	.	.	.	.	.
.	.	32gg\JJ	.	.	.	.	.	.	.	.	.	.	.	.	.	.	.	.	.	.	.	.	.
16g/	.	8gg\J	.	.	.	.	.	.	.	.	.	.	.	.	.	.	.	.	.	.	.	.	.
16b-/JJ	.	.	.	.	.	.	.	.	.	.	.	.	.	.	.	.	.	.	.	.	.	.	.
*rep	*	*	*	*	*	*	*	*	*	*	*	*	*	*	*	*	*	*	*	*	*	*	*
16d/LL	.	8r	.	.	.	.	.	.	.	.	.	.	.	.	.	.	.	.	.	.	.	.	.
16b-/	.	.	.	.	.	.	.	.	.	.	.	.	.	.	.	.	.	.	.	.	.	.	.
16g/	.	32aa-\LLL	.	.	.	.	.	.	.	.	.	.	.	.	.	.	.	.	.	.	.	.	.
.	.	32gg\	.	.	.	.	.	.	.	.	.	.	.	.	.	.	.	.	.	.	.	.	.
16b-/JJ	.	32ff\	.	.	.	.	.	.	.	.	.	.	.	.	.	.	.	.	.	.	.	.	.
.	.	32gg\JJJ	.	.	.	.	.	.	.	.	.	.	.	.	.	.	.	.	.	.	.	.	.
*Xrep	*	*	*	*	*	*	*	*	*	*	*	*	*	*	*	*	*	*	*	*	*	*	*
*clefF4	*	*	*	*	*	*	*	*	*	*	*	*	*	*	*	*	*	*	*	*	*	*	*
=100	=100	=100	=100	=100	=100	=100	=100	=100	=100	=100	=100	=100	=100	=100	=100	=100	=100	=100	=100	=100	=100	=100	=100
16A-X\LL	.	32ff\LLL	.	1r	.	1r	.	0r	.	2r	.	0r	.	0r	.	2r	.	2ryy	.	2r	.	2r	.
.	.	32gg\	.	.	.	.	.	.	.	.	.	.	.	.	.	.	.	.	.	.	.	.	.
16f\	.	32ff\	.	.	.	.	.	.	.	.	.	.	.	.	.	.	.	.	.	.	.	.	.
.	.	32gg\JJJ	.	.	.	.	.	.	.	.	.	.	.	.	.	.	.	.	.	.	.	.	.
16c\	.	32aa-\LLL	.	.	.	.	.	.	.	.	.	.	.	.	.	.	.	.	.	.	.	.	.
.	.	32bb-\	.	.	.	.	.	.	.	.	.	.	.	.	.	.	.	.	.	.	.	.	.
16f\JJ	.	32aa-\	.	.	.	.	.	.	.	.	.	.	.	.	.	.	.	.	.	.	.	.	.
.	.	32bb-\JJJ	.	.	.	.	.	.	.	.	.	.	.	.	.	.	.	.	.	.	.	.	.
16A-\LL	.	16ccc\LL	.	.	.	.	.	.	.	.	.	.	.	.	.	.	.	.	.	.	.	.	.
16f\	.	16aa-\	.	.	.	.	.	.	.	.	.	.	.	.	.	.	.	.	.	.	.	.	.
16An\	.	16ff\	.	.	.	.	.	.	.	.	.	.	.	.	.	.	.	.	.	.	.	.	.
16f\JJ	.	16ee-\JJ	.	.	.	.	.	.	.	.	.	.	.	.	.	.	.	.	.	.	.	.	.
=101	=101	=101	=101	=101	=101	=101	=101	=101	=101	=101	=101	=101	=101	=101	=101	=101	=101	=101	=101	=101	=101	=101	=101
!LO:TX:a:t=P:problem=mixedbeam	!	!	!	!	!	!	!	!	!	!	!	!	!	!	!	!	!	!	!	!	!	!	!
.	.	16qqff/	.	.	.	.	.	.	.	.	.	.	.	.	.	.	.	.	.	.	.	.	.
!	!	!	!	!	!	!	!	!	!	!	!	!	!	!	!	!	!	!	!LO:DY:a:t=p.	!	!	!	!
8B-\L	.	16ee-\LL	.	.	.	.	.	.	.	2r	.	.	.	.	.	8r	.	8r	p	8b-\L	.	8r	.
.	.	32dd\L	.	.	.	.	.	.	.	.	.	.	.	.	.	.	.	.	.	.	.	.	.
.	.	32ee-\JJ	.	.	.	.	.	.	.	.	.	.	.	.	.	.	.	.	.	.	.	.	.
8BB-/J	.	8dd\J	.	.	.	.	.	.	.	.	.	.	.	.	.	8B-/L	.	8b-\L	.	8b-\	.	8bb-\L	.
4r	.	4r	.	.	.	.	.	.	.	.	.	.	.	.	.	8B-/	.	8b-\	.	8b-\J	.	8bb-\	.
.	.	.	.	.	.	.	.	.	.	.	.	.	.	.	.	8B-/J	.	8b-\J	.	8r	.	8bb-\J	.
=102	=102	=102	=102	=102	=102	=102	=102	=102	=102	=102	=102	=102	=102	=102	=102	=102	=102	=102	=102	=102	=102	=102	=102
!	!	!	!	!	!LO:DY:a:t=p.	!	!	!	!	!	!	!	!	!	!	!	!	!	!	!	!	!	!
16D\LL	.	32aa-\LLL	.	8a-/	p	8b-\	.	.	.	2r	.	.	.	.	.	8B-/	.	8f\	.	2ff\	.	4aa-\	.
.	.	32bb-\	.	.	.	.	.	.	.	.	.	.	.	.	.	.	.	.	.	.	.	.	.
16B-\	.	32aa-\	.	.	.	.	.	.	.	.	.	.	.	.	.	.	.	.	.	.	.	.	.
.	.	32gg\JJJ	.	.	.	.	.	.	.	.	.	.	.	.	.	.	.	.	.	.	.	.	.
16F\	.	32ff\LLL	.	8r	.	8r	.	.	.	.	.	.	.	.	.	8r	.	8r	.	.	.	.	.
.	.	32gg\	.	.	.	.	.	.	.	.	.	.	.	.	.	.	.	.	.	.	.	.	.
16B-\JJ	.	32ff\	.	.	.	.	.	.	.	.	.	.	.	.	.	.	.	.	.	.	.	.	.
.	.	32ee-\JJJ	.	.	.	.	.	.	.	.	.	.	.	.	.	.	.	.	.	.	.	.	.
*rep	*	*	*	*	*	*	*	*	*	*	*	*	*	*	*	*	*	*	*	*	*	*	*
16D\LL	.	32dd\LLL	.	8a-/	.	8b-\	.	.	.	.	.	.	.	.	.	8B-/	.	8f\	.	.	.	4aa-\	.
.	.	32ee-\	.	.	.	.	.	.	.	.	.	.	.	.	.	.	.	.	.	.	.	.	.
16B-\	.	32dd\	.	.	.	.	.	.	.	.	.	.	.	.	.	.	.	.	.	.	.	.	.
.	.	32cc\JJJ	.	.	.	.	.	.	.	.	.	.	.	.	.	.	.	.	.	.	.	.	.
16F\	.	32b-/LLL	.	8r	.	8r	.	.	.	.	.	.	.	.	.	8r	.	8r	.	.	.	.	.
.	.	32cc/	.	.	.	.	.	.	.	.	.	.	.	.	.	.	.	.	.	.	.	.	.
16B-\JJ	.	32b-/	.	.	.	.	.	.	.	.	.	.	.	.	.	.	.	.	.	.	.	.	.
.	.	32a-/JJJ	.	.	.	.	.	.	.	.	.	.	.	.	.	.	.	.	.	.	.	.	.
*Xrep	*	*	*	*	*	*	*	*	*	*	*	*	*	*	*	*	*	*	*	*	*	*	*
!LO:LB:g=original	!	!LO:LB:g=original	!	!LO:PB:g=original	!	!	!	!	!	!	!	!	!	!	!	!	!	!	!	!	!	!	!
=103	=103	=103	=103	=103	=103	=103	=103	=103	=103	=103	=103	=103	=103	=103	=103	=103	=103	=103	=103	=103	=103	=103	=103
16E-\LL	.	32g/LLL	.	8g/	.	8b-\	.	.	.	2r	.	.	.	.	.	8e-\	.	8g\	.	2ee-\	.	2gg\	.
.	.	32e-/	.	.	.	.	.	.	.	.	.	.	.	.	.	.	.	.	.	.	.	.	.
16B-\	.	32b-/	.	.	.	.	.	.	.	.	.	.	.	.	.	.	.	.	.	.	.	.	.
.	.	32g/JJJ	.	.	.	.	.	.	.	.	.	.	.	.	.	.	.	.	.	.	.	.	.
16G\	.	32ee-\LLL	.	8r	.	8r	.	.	.	.	.	.	.	.	.	8r	.	8r	.	.	.	.	.
.	.	32b-\	.	.	.	.	.	.	.	.	.	.	.	.	.	.	.	.	.	.	.	.	.
16B-\JJ	.	32gg\	.	.	.	.	.	.	.	.	.	.	.	.	.	.	.	.	.	.	.	.	.
.	.	32ee-\JJJ	.	.	.	.	.	.	.	.	.	.	.	.	.	.	.	.	.	.	.	.	.
*rep	*	*	*	*	*	*	*	*	*	*	*	*	*	*	*	*	*	*	*	*	*	*	*
16E-\LL	.	32bb-\LLL	.	8g/	.	8b-\	.	.	.	.	.	.	.	.	.	8e-\	.	8g\	.	.	.	.	.
.	.	32gg\	.	.	.	.	.	.	.	.	.	.	.	.	.	.	.	.	.	.	.	.	.
16B-\	.	32ff\	.	.	.	.	.	.	.	.	.	.	.	.	.	.	.	.	.	.	.	.	.
.	.	32ee-\JJJ	.	.	.	.	.	.	.	.	.	.	.	.	.	.	.	.	.	.	.	.	.
16G\	.	32dd\LLL	.	8r	.	8r	.	.	.	.	.	.	.	.	.	8r	.	8r	.	.	.	.	.
.	.	32ee-\	.	.	.	.	.	.	.	.	.	.	.	.	.	.	.	.	.	.	.	.	.
16B-\JJ	.	32ff\	.	.	.	.	.	.	.	.	.	.	.	.	.	.	.	.	.	.	.	.	.
.	.	32gg\JJJ	.	.	.	.	.	.	.	.	.	.	.	.	.	.	.	.	.	.	.	.	.
*Xrep	*	*	*	*	*	*	*	*	*	*	*	*	*	*	*	*	*	*	*	*	*	*	*
=104	=104	=104	=104	=104	=104	=104	=104	=104	=104	=104	=104	=104	=104	=104	=104	=104	=104	=104	=104	=104	=104	=104	=104
16D\LL	.	32aa-\LLL	.	8a-/	.	8b-\	.	0r	.	2r	.	0r	.	0r	.	8B-/	.	8f\	.	2ff\	.	2aa-\	.
.	.	32bb-\	.	.	.	.	.	.	.	.	.	.	.	.	.	.	.	.	.	.	.	.	.
16B-\	.	32aa-\	.	.	.	.	.	.	.	.	.	.	.	.	.	.	.	.	.	.	.	.	.
.	.	32gg\JJJ	.	.	.	.	.	.	.	.	.	.	.	.	.	.	.	.	.	.	.	.	.
16F\	.	32ff\LLL	.	8r	.	8r	.	.	.	.	.	.	.	.	.	8r	.	8r	.	.	.	.	.
.	.	32gg\	.	.	.	.	.	.	.	.	.	.	.	.	.	.	.	.	.	.	.	.	.
16B-\JJ	.	32ff\	.	.	.	.	.	.	.	.	.	.	.	.	.	.	.	.	.	.	.	.	.
.	.	32ee-\JJJ	.	.	.	.	.	.	.	.	.	.	.	.	.	.	.	.	.	.	.	.	.
*rep	*	*	*	*	*	*	*	*	*	*	*	*	*	*	*	*	*	*	*	*	*	*	*
16D\LL	.	32dd\LLL	.	8a-/	.	8b-\	.	.	.	.	.	.	.	.	.	8B-/	.	8f\	.	.	.	.	.
.	.	32ee-\	.	.	.	.	.	.	.	.	.	.	.	.	.	.	.	.	.	.	.	.	.
16B-\	.	32dd\	.	.	.	.	.	.	.	.	.	.	.	.	.	.	.	.	.	.	.	.	.
.	.	32cc\JJJ	.	.	.	.	.	.	.	.	.	.	.	.	.	.	.	.	.	.	.	.	.
16F\	.	32b-\LLL	.	8r	.	8r	.	.	.	.	.	.	.	.	.	8r	.	8r	.	.	.	.	.
.	.	32cc\	.	.	.	.	.	.	.	.	.	.	.	.	.	.	.	.	.	.	.	.	.
16B-\JJ	.	32b-\	.	.	.	.	.	.	.	.	.	.	.	.	.	.	.	.	.	.	.	.	.
.	.	32a-\JJJ	.	.	.	.	.	.	.	.	.	.	.	.	.	.	.	.	.	.	.	.	.
*Xrep	*	*	*	*	*	*	*	*	*	*	*	*	*	*	*	*	*	*	*	*	*	*	*
=105	=105	=105	=105	=105	=105	=105	=105	=105	=105	=105	=105	=105	=105	=105	=105	=105	=105	=105	=105	=105	=105	=105	=105
!	!	!LO:TX:a:t=P:problem=mixedbeam	!	!	!	!	!	!	!	!	!	!	!	!	!	!	!	!	!	!	!	!	!
16E-\LL	.	32g/LLL	.	8g/	.	8b-\	.	.	.	2r	.	.	.	.	.	8e-\	.	8g\	.	8ee-\	.	8gg\	.
.	.	32ee-\	.	.	.	.	.	.	.	.	.	.	.	.	.	.	.	.	.	.	.	.	.
16B-\	.	32dd\	.	.	.	.	.	.	.	.	.	.	.	.	.	.	.	.	.	.	.	.	.
.	.	32ee-\JJJ	.	.	.	.	.	.	.	.	.	.	.	.	.	.	.	.	.	.	.	.	.
16G\	.	32ff\LLL	.	8r	.	8r	.	.	.	.	.	.	.	.	.	8r	.	8r	.	8r	.	8r	.
.	.	32ee-\	.	.	.	.	.	.	.	.	.	.	.	.	.	.	.	.	.	.	.	.	.
16B-\JJ	.	32dd\	.	.	.	.	.	.	.	.	.	.	.	.	.	.	.	.	.	.	.	.	.
.	.	32ee-\JJJ	.	.	.	.	.	.	.	.	.	.	.	.	.	.	.	.	.	.	.	.	.
16G\LL	.	32bb-\LLL	.	4r	.	4r	.	.	.	.	.	.	.	.	.	4r	.	4r	.	4r	.	4r	.
.	.	32dd-X\	.	.	.	.	.	.	.	.	.	.	.	.	.	.	.	.	.	.	.	.	.
16e-\	.	32cc\	.	.	.	.	.	.	.	.	.	.	.	.	.	.	.	.	.	.	.	.	.
.	.	32dd-\JJJ	.	.	.	.	.	.	.	.	.	.	.	.	.	.	.	.	.	.	.	.	.
16B-\	.	32ee-\LLL	.	.	.	.	.	.	.	.	.	.	.	.	.	.	.	.	.	.	.	.	.
.	.	32dd-\	.	.	.	.	.	.	.	.	.	.	.	.	.	.	.	.	.	.	.	.	.
16e-\JJ	.	32cc\	.	.	.	.	.	.	.	.	.	.	.	.	.	.	.	.	.	.	.	.	.
.	.	32dd-\JJJ	.	.	.	.	.	.	.	.	.	.	.	.	.	.	.	.	.	.	.	.	.
!LO:LB:g=original	!	!LO:LB:g=original	!	!	!	!	!	!	!	!	!	!	!	!	!	!	!	!	!	!	!	!	!
=106	=106	=106	=106	=106	=106	=106	=106	=106	=106	=106	=106	=106	=106	=106	=106	=106	=106	=106	=106	=106	=106	=106	=106
8A-\	.	16cc\LL	.	2r	.	2r	.	.	.	2r	.	.	.	.	.	1r	.	2r	.	1r	.	1r	.
.	.	32ff\L	.	.	.	.	.	.	.	.	.	.	.	.	.	.	.	.	.	.	.	.	.
.	.	32een\JJJ	.	.	.	.	.	.	.	.	.	.	.	.	.	.	.	.	.	.	.	.	.
8r	.	32gg\LLL	.	.	.	.	.	.	.	.	.	.	.	.	.	.	.	.	.	.	.	.	.
.	.	32ff\	.	.	.	.	.	.	.	.	.	.	.	.	.	.	.	.	.	.	.	.	.
.	.	32aa-\	.	.	.	.	.	.	.	.	.	.	.	.	.	.	.	.	.	.	.	.	.
.	.	32gg\JJJ	.	.	.	.	.	.	.	.	.	.	.	.	.	.	.	.	.	.	.	.	.
8r	.	32bb-\LLL	.	.	.	.	.	.	.	.	.	.	.	.	.	.	.	.	.	.	.	.	.
.	.	32aan\	.	.	.	.	.	.	.	.	.	.	.	.	.	.	.	.	.	.	.	.	.
.	.	32bb-\	.	.	.	.	.	.	.	.	.	.	.	.	.	.	.	.	.	.	.	.	.
.	.	32ccc\JJJ	.	.	.	.	.	.	.	.	.	.	.	.	.	.	.	.	.	.	.	.	.
8A-\ 8f	.	32bb-X\LLL	.	.	.	.	.	.	.	.	.	.	.	.	.	.	.	.	.	.	.	.	.
!	!	!LO:SIC:v:s=32aa-\	!	!	!	!	!	!	!	!	!	!	!	!	!	!	!	!	!	!	!	!	!
.	.	32aa\	.	.	.	.	.	.	.	.	.	.	.	.	.	.	.	.	.	.	.	.	.
.	.	32gg\	.	.	.	.	.	.	.	.	.	.	.	.	.	.	.	.	.	.	.	.	.
.	.	32ff\JJJ	.	.	.	.	.	.	.	.	.	.	.	.	.	.	.	.	.	.	.	.	.
!	!	!	!	!	!	!	!	!	!	!	!	!	!	!	!	!	!	!LO:LB:g=original	!	!	!	!	!
=107	=107	=107	=107	=107	=107	=107	=107	=107	=107	=107	=107	=107	=107	=107	=107	=107	=107	=107	=107	=107	=107	=107	=107
16B-\LL	.	16ee-\LL	.	4e-/	.	16g/LL	.	.	.	2r	.	.	.	.	.	.	.	2ryy	.	.	.	.	.
16g\	.	16bb-\JJ	.	.	.	16g/	.	.	.	.	.	.	.	.	.	.	.	.	.	.	.	.	.
16e-\	.	32aa-\LLL	.	.	.	16g/	.	.	.	.	.	.	.	.	.	.	.	.	.	.	.	.	.
.	.	32gg\	.	.	.	.	.	.	.	.	.	.	.	.	.	.	.	.	.	.	.	.	.
16g\JJ	.	32ff\	.	.	.	16g/JJ	.	.	.	.	.	.	.	.	.	.	.	.	.	.	.	.	.
.	.	32ee-\JJJ	.	.	.	.	.	.	.	.	.	.	.	.	.	.	.	.	.	.	.	.	.
16B-\LL	.	4ffT\	.	4e-/	.	16a-/LL	.	.	.	.	.	.	.	.	.	.	.	.	.	.	.	.	.
16f\	.	.	.	.	.	16a-/	.	.	.	.	.	.	.	.	.	.	.	.	.	.	.	.	.
16d\	.	.	.	.	.	16a-/	.	.	.	.	.	.	.	.	.	.	.	.	.	.	.	.	.
16f\JJ	.	.	.	.	.	16a-/JJ	.	.	.	.	.	.	.	.	.	.	.	.	.	.	.	.	.
=108	=108	=108	=108	=108	=108	=108	=108	=108	=108	=108	=108	=108	=108	=108	=108	=108	=108	=108	=108	=108	=108	=108	=108
8e-\	.	8ee-\	.	8f/	.	8g/	.	1r	.	2r	.	1r	.	1r	.	16r	.	16r	.	(16ee-\LL	.	16ee-\LL	.
.	.	.	.	.	.	.	.	.	.	.	.	.	.	.	.	16e-\LL	.	16g\LL	.	16ee-\)	.	16gg\	.
8r	.	8r	.	8r	.	8r	.	.	.	.	.	.	.	.	.	16f\	.	16a-\	.	16ff|>\	.	16aa-\	.
.	.	.	.	.	.	.	.	.	.	.	.	.	.	.	.	16g\JJ	.	16b-\JJ	.	16gg|>\JJ	.	16bb-\JJ	.
8r	.	4r	.	8r	.	8r	.	.	.	.	.	.	.	.	.	16g\LL	.	16b-\LL	.	(16gg\LL	.	16bb-\LL	.
.	.	.	.	.	.	.	.	.	.	.	.	.	.	.	.	16f\	.	16a-\	.	16ff\)	.	16aa-\	.
8B-\	7	.	.	8f/	.	8dd\	.	.	.	.	.	.	.	.	.	16B-\	.	16f\	.	16dd|>\	.	16ff\	.
.	.	.	.	.	.	.	.	.	.	.	.	.	.	.	.	16f\JJ	.	16a-\JJ	.	16ff|>\JJ	.	16aa-\JJ	.
!	!	!	!	!	!	!LO:LB:g=original	!	!	!	!	!	!	!	!	!	!	!	!	!	!LO:LB:g=original	!	!	!
=109	=109	=109	=109	=109	=109	=109	=109	=109	=109	=109	=109	=109	=109	=109	=109	=109	=109	=109	=109	=109	=109	=109	=109
8E-\	.	2r	.	8g/	.	8ee-\	.	.	.	2r	.	.	.	.	.	16e-\LL	.	16g\LL	.	(16ee-\LL	.	16gg\LL	.
.	.	.	.	.	.	.	.	.	.	.	.	.	.	.	.	16e-\	.	16g\	.	16ee-\)	.	16gg\	.
8r	.	.	.	8r	.	8r	.	.	.	.	.	.	.	.	.	16f\	.	16a-\	.	16ff|>\	.	16aa-\	.
.	.	.	.	.	.	.	.	.	.	.	.	.	.	.	.	16g\JJ	.	16b-\JJ	.	16gg|>\JJ	.	16bb-\JJ	.
8r	.	.	.	8r	.	8r	.	.	.	.	.	.	.	.	.	16g\LL	.	16b-\LL	.	(16gg\LL	.	16bb-\LL	.
.	.	.	.	.	.	.	.	.	.	.	.	.	.	.	.	16f\	.	16a-\	.	16ff\)	.	16aa-\	.
8BB-/	7	.	.	8f/	.	8dd\	.	.	.	.	.	.	.	.	.	16B-\	.	16f\	.	16dd|>\	.	16ff\	.
.	.	.	.	.	.	.	.	.	.	.	.	.	.	.	.	16f\JJ	.	16a-\JJ	.	16ff|>\JJ	.	16aa-\JJ	.
=110	=110	=110	=110	=110	=110	=110	=110	=110	=110	=110	=110	=110	=110	=110	=110	=110	=110	=110	=110	=110	=110	=110	=110
!LO:TX:a:t=P:problem=mixedbeam	!	!	!	!	!	!	!	!	!	!	!	!	!	!	!	!	!	!	!	!	!	!	!
8E-\L	9	2r	.	4f/	.	4dd\	.	2r	.	2r	.	2r	.	2r	.	4f\	.	4a-\	.	4ff\	.	4aa-\	.
8BB-/	2	.	.	.	.	.	.	.	.	.	.	.	.	.	.	.	.	.	.	.	.	.	.
8EE-/J	.	.	.	8g/	.	8ee-\	.	.	.	.	.	.	.	.	.	8e-\	.	8g\	.	8ee-\	.	8gg\	.
8r	.	.	.	8r	.	8r	.	.	.	.	.	.	.	.	.	8r	.	8r	.	8r	.	8r	.
!LO:PB:g=original	!	!LO:PB:g=original	!	!LO:LB:g=original	!	!LO:LB:g=original	!	!	!	!LO:LB:g=original	!	!LO:LB:g=original	!	!LO:LB:g=original	!	!LO:LB:g=original	!	!LO:LB:g=original	!	!LO:LB:g=original	!	!LO:LB:g=original	!
==	==	==	==	==	==	==	==	==	==	==	==	==	==	==	==	==	==	==	==	==	==	==	==
*-	*-	*-	*-	*-	*-	*-	*-	*-	*-	*-	*-	*-	*-	*-	*-	*-	*-	*-	*-	*-	*-	*-	*-
!!!system-decoration: [(s1,s2)][(s3,s4)][(s5,s6,s7,s8)][(s9,s10)]{(s11,s12)}
!!!RDF**kern: < = below
!!!RDF**kern: > = above
!!!RDF**kern: | = vertical stroke
!!!ENC: Berenika Jozajtis
!!!END: 2011-11-30
!!!ENC: Marta Chmielewska
!!!END: 2021-12-07
